!!!COM: Haydn, Franz Joseph
!!!OPR: Symphony in E-flat Major
!!!OTL: Menuetto and Trio
!!!OMV: 3
!!!SCT: H I:99
!!!SCA: Thematisch-bibliographisches Werkevererzeichnis (A. van Hoboken)
!!!YOR: Dover Edition; reprint of Eulenburg Edition
!!!EED: Frances Bennion
!!!ENC: Frances Bennion
!!!CDT: 1732/3/31/-1809/5/31/
!!!OCY: Österreich
!!!YEC: Copyright (c) 1994, 2000 Center for Computer Assisted Research in the Humanities
!!!YEM: Rights to all derivative editions reserved.
!!!YEM: Refer to licensing agreement for further details.
!!!YEN: United States of America
**kern	**dynam	**kern	**dynam	**kern	**dynam	**kern	**dynam	**kern	**dynam	**kern	**dynam	**kern	**dynam	**kern	**dynam	**kern	**dynam	**kern	**dynam	**kern	**dynam	**kern	**dynam
*I:Flauto 1, 2	*I:Flauto 1, 2	*I:Viola	*I:Viola	*I:Violoncello	*I:Violoncello	*I:Basso	*I:Basso	*I:Oboe 1, 2	*I:Oboe 1, 2	*I:Clarinet 1, 2 in Bb	*I:Clarinet 1, 2 in Bb	*I:Fagotto 1, 2	*I:Fagotto 1, 2	*I:Corno 1, 2 in Eb	*I:Corno 1, 2 in Eb	*I:Tromba 1, 2 in Eb	*I:Tromba 1, 2 in Eb	*I:Timpani in Eb, Bb	*I:Timpani in Eb, Bb	*I:Violino I	*I:Violino I	*I:Violino II	*I:Violino II
*>[A,B,B,C,D,D,E]	*	*>[A,B,B,C,D,D,E]	*	*>[A,B,B,C,D,D,E]	*	*>[A,B,B,C,D,D,E]	*	*>[A,B,B,C,D,D,E]	*	*>[A,B,B,C,D,D,E]	*	*>[A,B,B,C,D,D,E]	*	*>[A,B,B,C,D,D,E]	*	*>[A,B,B,C,D,D,E]	*	*>[A,B,B,C,D,D,E]	*	*>[A,B,B,C,D,D,E]	*	*>[A,B,B,C,D,D,E]	*
*>A	*	*>A	*	*>A	*	*>A	*	*>A	*	*>A	*	*>A	*	*>A	*	*>A	*	*>A	*	*>A	*	*>A	*
*clefG2	*	*clefC3	*	*clefF4	*	*clefF4	*	*clefG2	*	*clefG2	*	*clefF4	*	*clefG2	*	*clefG2	*	*clefF4	*	*clefG2	*	*clefG2	*
*k[b-e-a-]	*	*k[b-e-a-]	*	*k[b-e-a-]	*	*ITrd-7c-12	*ITrd-7c-12	*k[b-e-a-]	*	*k[b-]	*	*k[b-e-a-]	*	*k[]	*	*k[]	*	*k[]	*	*k[b-e-a-]	*	*k[b-e-a-]	*
*E-:	*	*E-:	*	*E-:	*	*k[b-e-a-]	*	*E-:	*	*E-:	*	*E-:	*	*E-:	*	*E-:	*	*E-:	*	*E-:	*	*E-:	*
*M3/4	*	*M3/4	*	*M3/4	*	*E-/c:	*	*M3/4	*	*M3/4	*	*M3/4	*	*M3/4	*	*M3/4	*	*M3/4	*	*M3/4	*	*M3/4	*
! Menuetto. Allegretto	!	! Menuetto. Allegretto	!	! Menuetto. Allegretto	!	!	!	! Menuetto. Allegretto	!	! Menuetto. Allegretto	!	! Menuetto. Allegretto	!	! Menuetto. Allegretto	!	! Menuetto. Allegretto	!	! Menuetto. Allegretto	!	! Menuetto. Allegretto	!	! Menuetto. Allegretto	!
*tb16	*	*tb16	*	*tb16	*	*M3/4	*	*tb16	*	*tb16	*	*tb16	*	*tb16	*	*tb16	*	*tb16	*	*tb16	*	*tb16	*
!	!	!	!	!	!	! Menuetto. Allegretto	!	!	!	!	!	!	!	!	!	!	!	!	!	!	!	!	!
*	*	*	*	*	*	*tb16	*	*	*	*	*	*	*	*	*	*	*	*	*	*	*	*	*
=0-	=0-	=0-	=0-	=0-	=0-	=0-	=0-	=0-	=0-	=0-	=0-	=0-	=0-	=0-	=0-	=0-	=0-	=0-	=0-	=0-	=0-	=0-	=0-
*	*	*	*	*	*	*	*	*	*	*^	*	*	*	*^	*	*^	*	*	*	*	*	*	*
4r	.	4b-'\	p	4r	.	4r	.	4r	.	2ryy	4cc\	.	4r	.	2ryy	4r	.	2ryy	4r	.	4r	.	4bb-'\	p	4bb-'\	p
2ryy	.	2ryy	.	2ryy	.	2ryy	.	2ryy	.	.	2ryy	.	2ryy	.	.	2ryy	.	.	2ryy	.	2ryy	.	2ryy	.	2ryy	.
.	.	.	.	.	.	.	.	.	.	4ccc'\	.	p	.	.	4r	.	.	4r	.	.	.	.	.	.	.	.
=1	=1	=1	=1	=1	=1	=1	=1	=1	=1	=1	=1	=1	=1	=1	=1	=1	=1	=1	=1	=1	=1	=1	=1	=1	=1	=1
2.r	.	4g'\	.	2.r	.	2.r	.	2.r	.	4aa'\	4a\	.	2.r	.	2.r	2.r	.	2.r	2.r	.	2.r	.	4gg'\	.	4gg'\	.
.	.	4e-'\	.	.	.	.	.	.	.	4ff'\	4f\	.	.	.	.	.	.	.	.	.	.	.	4ee-'\	.	4ee-'\	.
.	.	4B-'/	.	.	.	.	.	.	.	4cc/	4c'/	.	.	.	.	.	.	.	.	.	.	.	4b-'\	.	4b-'\	.
=2	=2	=2	=2	=2	=2	=2	=2	=2	=2	=2	=2	=2	=2	=2	=2	=2	=2	=2	=2	=2	=2	=2	=2	=2	=2	=2
*	*	*	*	*	*	*	*	*	*	*v	*v	*	*	*	*	*	*	*	*	*	*	*	*	*	*	*
*	*	*	*	*	*	*	*	*	*	*	*	*	*	*v	*v	*	*	*	*	*	*	*	*	*	*
*	*	*	*	*	*	*	*	*	*	*	*	*	*	*	*	*v	*v	*	*	*	*	*	*	*
4r	.	4G'/	.	4r	.	4r	.	4r	.	4a/ 4A'/	.	4r	.	4r	.	4r	.	4r	.	4g'/	.	4g'/	.
4r	.	4r	.	4r	.	4r	.	4r	.	4r	.	4r	.	4r	.	4r	.	4r	.	4r	.	4r	.
! zu 2	!	!	!	!	!	!	!	! zu 2	!	!	!	! zu 2	!	!	!	!	!	!	!	!	!	!	!
4eee-'\	f	4B-'/	f	4G'\	f	4GG'\	f	4ee-'\	f	4r	.	4B-'\	f	4cc/ 4c'/	f	4cc/ 4c'/	f	4E'\	f	4e-'/	f	4e-'/	f
=3	=3	=3	=3	=3	=3	=3	=3	=3	=3	=3	=3	=3	=3	=3	=3	=3	=3	=3	=3	=3	=3	=3	=3
*	*	*	*	*	*	*	*	*	*	*^	*	*	*	*^	*	*^	*	*	*	*	*	*	*
4ddd'\	.	4A-'/	.	4F'\	.	4FF'\	.	4dd'\	.	2.r	2.r	.	4A-'\	.	4g/	4G'/	.	4g/	4G'/	.	4BB'/	.	4d'/	.	4d'/	.
4ddd'\	.	4A-'/	.	4F'\	.	4FF'\	.	4dd'\	.	.	.	.	4A-'\	.	4g/	4G'/	.	4g/	4G'/	.	4BB'/	.	4d'/	.	4d'/	.
4ccc'\	.	4G'/	.	4E-'\	.	4EE-'\	.	4cc'\	.	.	.	.	4G'\	.	4g/	4G'/	.	4g/	4G'/	.	4BB'/	.	4c'/	.	4c'/	.
=4	=4	=4	=4	=4	=4	=4	=4	=4	=4	=4	=4	=4	=4	=4	=4	=4	=4	=4	=4	=4	=4	=4	=4	=4	=4	=4
*	*	*	*	*	*	*	*	*	*	*	*	*	*	*	*v	*v	*	*	*	*	*	*	*	*	*	*
*	*	*	*	*	*	*	*	*	*	*	*	*	*	*	*	*	*v	*v	*	*	*	*	*	*	*
4bb-'\	.	4F'/	.	4D'\	.	4DD'\	.	4b-'\	.	4r	2ryy	.	4F'\	.	4g/ 4G'/	.	4g/ 4G'/	.	4BB'/	.	4B-'/	.	4B-'/	.
4r	.	4r	.	4r	.	4r	.	4r	.	4r	.	.	4r	.	4r	.	4r	.	4r	.	4r	.	4r	.
4r	.	4b-'\	p	4r	.	4r	.	4r	.	4ccc'\	4cc\	p	4r	.	4r	.	4r	.	4r	.	4bb-'\	p	4bb-'\	p
=5	=5	=5	=5	=5	=5	=5	=5	=5	=5	=5	=5	=5	=5	=5	=5	=5	=5	=5	=5	=5	=5	=5	=5	=5
*	*	*	*	*	*	*	*	*	*	*	*	*	*	*	*^	*	*^	*	*	*	*	*	*	*
2.r	.	4a-'\	.	2.r	.	2.r	.	2.r	.	4bb-'\	4b-\	.	2.r	.	2.r	2.r	.	2.r	2.r	.	2.r	.	4aa-'\	.	4aa-'\	.
.	.	4f'\	.	.	.	.	.	.	.	4gg'\	4g\	.	.	.	.	.	.	.	.	.	.	.	4ff'\	.	4ff'\	.
.	.	4d'\	.	.	.	.	.	.	.	4ee/	4e'/	.	.	.	.	.	.	.	.	.	.	.	4dd'\	.	4dd'\	.
=6	=6	=6	=6	=6	=6	=6	=6	=6	=6	=6	=6	=6	=6	=6	=6	=6	=6	=6	=6	=6	=6	=6	=6	=6	=6	=6
*	*	*	*	*	*	*	*	*	*	*v	*v	*	*	*	*	*	*	*	*	*	*	*	*	*	*	*
*	*	*	*	*	*	*	*	*	*	*	*	*	*	*v	*v	*	*	*	*	*	*	*	*	*	*
*	*	*	*	*	*	*	*	*	*	*	*	*	*	*	*	*v	*v	*	*	*	*	*	*	*
4r	.	4B-'/	.	4r	.	4r	.	4r	.	4cc/ 4c'/	.	4r	.	4r	.	4r	.	4r	.	4b-'\	.	4b-'\	.
4r	.	4r	.	4r	.	4r	.	4r	.	4r	.	4r	.	4r	.	4r	.	4r	.	4r	.	4r	.
4aa-'\	f	4B-'/	f	4D'\	f	4DD'\	f	4aa-'\ 4b-\	f	4r	.	4f'\	f	4dd'\ 4g\	f	4dd'\ 4g\	f	4BB'/	f	4a-'/	f	4f'/	f
=7	=7	=7	=7	=7	=7	=7	=7	=7	=7	=7	=7	=7	=7	=7	=7	=7	=7	=7	=7	=7	=7	=7	=7
*	*	*	*	*	*	*	*	*	*	*^	*	*	*	*^	*	*^	*	*	*	*	*	*	*
4gg'\	.	4B-'/	.	4E-'\	.	4EE-'\	.	4gg'\ 4b-\	.	2.r	2.r	.	4e-'\	.	4ee'\	4cc\	.	4ee'\	4cc\	.	4E'\	.	4g'/	.	4e-'/	.
4gg'\	.	4e-'\	.	4E-'\	.	4EE-'\	.	4gg'\ 4ee-\	.	.	.	.	4B-'\	.	4ee'\	4cc\	.	4ee'\	4cc\	.	4E'\	.	4g'/	.	4B-'/	.
4ff'\	.	4d'\	.	4BB-'/	.	4BBB-'/	.	4ff'\ 4dd\	.	.	.	.	4A-'\	.	4dd'\	4g\	.	4dd'\	4g\	.	4BB'/	.	4f'/	.	4A-'/	.
=8	=8	=8	=8	=8	=8	=8	=8	=8	=8	=8	=8	=8	=8	=8	=8	=8	=8	=8	=8	=8	=8	=8	=8	=8	=8	=8
!	!	!	!	!	!	!	!	! zu 2	!	!	!	!	!	!	!	!	!	!	!	!	!	!	!	!	!	!
*	*	*	*	*	*	*	*	*	*	*	*	*	*	*	*v	*v	*	*	*	*	*	*	*	*	*	*
*	*	*	*	*	*	*	*	*	*	*	*	*	*	*	*	*	*v	*v	*	*	*	*	*	*	*
4ee-'\xx	.	4e-'\	.	4EE-/	.	4EEE-'/xx	.	4ee-'\	.	4r	2ryy	.	4G'\	.	4cc/ 4e'/	.	4cc/ 4e'/	.	4E'\	.	4e-'/	.	4G'/	.
4r	.	4r	.	4r	.	4r	.	4r	.	4r	.	.	4r	.	4r	.	4r	.	4r	.	4r	.	4r	.
4r	.	4r	.	4r	.	4r	.	4r	.	4ccc'\	4cc\	f	4r	.	4r	.	4r	.	4r	.	4bb-'\	f	4r	.
=9	=9	=9	=9	=9	=9	=9	=9	=9	=9	=9	=9	=9	=9	=9	=9	=9	=9	=9	=9	=9	=9	=9	=9	=9
*	*	*	*	*	*	*	*	*	*	*	*	*	*	*	*^	*	*^	*	*	*	*	*	*	*
2.r	.	4r	.	2.r	.	2.r	.	2.r	.	(4aa\	4a\	.	4r	.	2.r	2.r	.	2.r	2.r	.	2.r	.	(4gg\	.	4r	.
.	.	4r	.	.	.	.	.	.	.	4ff\)	4f\	.	4r	.	.	.	.	.	.	.	.	.	4ee-\)	.	4r	.
.	.	4e-'\	.	.	.	.	.	.	.	4dd'\	4a\	.	4e-'\	.	.	.	.	.	.	.	.	.	4cc'\	.	4g'/	.
=10	=10	=10	=10	=10	=10	=10	=10	=10	=10	=10	=10	=10	=10	=10	=10	=10	=10	=10	=10	=10	=10	=10	=10	=10	=10	=10
2.r	.	(4fz\	z	2.r	.	2.r	.	4r	.	(4cc#z\xx	(4b-\	z	(4fz\xx	z	2.r	2.r	.	2.r	2.r	.	2.r	.	(4bnz\	z	(4a-z/	z
.	.	4e-\)	.	.	.	.	.	4r	.	4dd\)	4a\)	.	4e-\)	.	.	.	.	.	.	.	.	.	4cc\)	.	4g/)	.
.	.	4r	.	.	.	.	.	4gg'\	.	4r	4ryy	.	4r	.	.	.	.	.	.	.	.	.	4gg'\	.	4r	.
=11	=11	=11	=11	=11	=11	=11	=11	=11	=11	=11	=11	=11	=11	=11	=11	=11	=11	=11	=11	=11	=11	=11	=11	=11	=11	=11
2.r	.	4r	.	2.r	.	2.r	.	(4ee-\	.	2.r	2.r	.	4r	.	2.r	2.r	.	2.r	2.r	.	2.r	.	(4ee-\	.	4r	.
.	.	4r	.	.	.	.	.	4cc\)	.	.	.	.	4r	.	.	.	.	.	.	.	.	.	4cc\)	.	4r	.
.	.	4d'\	.	.	.	.	.	4b-'\	.	.	.	.	4d'\	.	.	.	.	.	.	.	.	.	4b-'\	.	4f'/	.
=12	=12	=12	=12	=12	=12	=12	=12	=12	=12	=12	=12	=12	=12	=12	=12	=12	=12	=12	=12	=12	=12	=12	=12	=12	=12	=12
2.r	.	(4e-z\	z	2.r	.	2.r	.	(4anz/xx	z	2.r	2.r	.	(4e-z\xx	z	2.r	2.r	.	2.r	2.r	.	2.r	.	(4anz/	z	(4g-z/	z
.	.	4d\)	.	.	.	.	.	4b-\)	.	.	.	.	4d\)	.	.	.	.	.	.	.	.	.	4b-\)	.	4f/)	.
.	.	4r	.	.	.	.	.	4r	.	.	.	.	4r	.	.	.	.	.	.	.	.	.	4ff'\	f	4ff'\	f
=13	=13	=13	=13	=13	=13	=13	=13	=13	=13	=13	=13	=13	=13	=13	=13	=13	=13	=13	=13	=13	=13	=13	=13	=13	=13	=13
*	*	*	*	*	*	*	*	*	*	*	*	*	*	*	*v	*v	*	*	*	*	*	*	*	*	*	*
2.r	.	4r	.	4r	.	4r	.	2.r	.	2.r	2.r	.	4r	.	4r	.	2.r	2.r	.	2.r	.	4ee-'\	.	4ee-'\	.
!	!	!	!	!	!	!	!	!	!	!	!	!	!	!	! zu 2	!	!	!	!	!	!	!	!	!	!
.	.	4e-'\	f	4E-'\	f	4EE-'\	f	.	.	.	.	.	4e-'\	f	4cc\	f	.	.	.	.	.	4cc'\	.	4cc'\	.
.	.	4c'\	.	4C'/	.	4CC'/	.	.	.	.	.	.	4c'\	.	4cc\	.	.	.	.	.	.	4an'/	.	4an'/	.
=14	=14	=14	=14	=14	=14	=14	=14	=14	=14	=14	=14	=14	=14	=14	=14	=14	=14	=14	=14	=14	=14	=14	=14	=14	=14
2.r	.	4An'/	.	4AAn'/	.	4AAAn'/	.	2.r	.	2.r	2.r	.	4An'\	.	4r	.	2.r	2.r	.	2.r	.	4ff'\	.	4ff'\	.
.	.	4f'\	.	4F'\	.	4FF'\	.	.	.	.	.	.	4f'\	.	4dd\	.	.	.	.	.	.	4dd'\	.	4dd'\	.
.	.	4d'\	.	4D'\	.	4DD'\	.	.	.	.	.	.	4d'\	.	4dd\	.	.	.	.	.	.	4bn'\	.	4bn'\	.
=15	=15	=15	=15	=15	=15	=15	=15	=15	=15	=15	=15	=15	=15	=15	=15	=15	=15	=15	=15	=15	=15	=15	=15	=15	=15
2.r	.	4Bn'/	.	4BBn'/	.	4BBBn'/	.	2.r	.	2.r	2.r	.	4Bn'\	.	4r	.	2.r	2.r	.	2.r	.	4gg'\	.	4gg'\	.
.	.	4g'\	.	4G'\	.	4GG'\	.	.	.	.	.	.	4g'\	.	4ee\	.	.	.	.	.	.	4ee-'\	.	4ee-'\	.
.	.	4e-'\	.	4E-'\	.	4EE-'\	.	.	.	.	.	.	4e-'\	.	4ee\	.	.	.	.	.	.	4cc'\	.	4cc'\	.
=16	=16	=16	=16	=16	=16	=16	=16	=16	=16	=16	=16	=16	=16	=16	=16	=16	=16	=16	=16	=16	=16	=16	=16	=16	=16
2.r	.	4c'\	.	4C'/	.	4CC'/	.	2.r	.	2.r	2.r	.	4c'\	.	2dd\	.	2.r	2.r	.	2.r	.	(4aanz\	z	(4aanz\	z
.	.	4d'\	.	4D'\	.	4DD'\	.	.	.	.	.	.	4d'\	.	.	.	.	.	.	.	.	4bb-\)	.	4bb-\)	.
.	.	4g-'\	.	4G-'\	.	4GG-'\	.	.	.	.	.	.	4G-'\	.	4r	.	.	.	.	.	.	4een'\	.	4b-'\	.
=17	=17	=17	=17	=17	=17	=17	=17	=17	=17	=17	=17	=17	=17	=17	=17	=17	=17	=17	=17	=17	=17	=17	=17	=17	=17
*	*	*	*	*	*	*	*	*	*	*	*	*	*	*	*^	*	*	*	*	*	*	*	*	*	*
2.r	.	4f'\	.	2.F\	.	2.FF\	.	2.r	.	2.r	2.r	.	2.F\	.	2.r	2.r	.	2.r	2.r	.	2.r	.	4ff'\	.	4dd'\	.
.	.	4d'\	.	.	.	.	.	.	.	.	.	.	.	.	.	.	.	.	.	.	.	.	4b-'\	.	4d'/	.
.	.	4c'\	.	.	.	.	.	.	.	.	.	.	.	.	.	.	.	.	.	.	.	.	4an'/	.	4e-'/)	.
=18	=18	=18	=18	=18	=18	=18	=18	=18	=18	=18	=18	=18	=18	=18	=18	=18	=18	=18	=18	=18	=18	=18	=18	=18	=18	=18
2.r	.	4B-'/	.	2.BB-z/	z	2.BBB-z/	z	4r	.	4r	4ryy	.	4BB-/	.	4r	4ryy	.	[2.g/xx	[2.G/	f	4BB/xx	f	2b-\	.	2.d/	.
.	.	4f'\	.	.	.	.	.	4dd\xx 4b-\	f	4gg\xx	4g\	f	4f\xx 4d\	f	4dd\xx	4g\	f	.	.	.	4r	.	.	.	.	.
.	.	4d'\	.	.	.	.	.	4dd\ 4b-\	.	4gg\	4g\	.	4f\ 4d\	.	4dd\	4g\	.	.	.	.	4r	.	4ff\	.	.	.
=19	=19	=19	=19	=19	=19	=19	=19	=19	=19	=19	=19	=19	=19	=19	=19	=19	=19	=19	=19	=19	=19	=19	=19	=19	=19	=19
4r	.	4r	.	2.BB-z/	z	2.BBB-z/	z	4r	.	8ff#/L	[2.g\	.	4r	.	4r	4ryy	.	4g/]	4G/]	.	4BB/	.	(8een\L	.	4c/	.
.	.	.	.	.	.	.	.	.	.	8gg/	.	.	.	.	.	.	.	.	.	.	.	.	8ff\	.	.	.
! zu 2	!	!	!	!	!	!	!	!	!	!	!	!	!	!	!	!	!	!	!	!	!	!	!	!	!	!
4ccc\xx	f	4c'\	.	.	.	.	.	4ee-\ 4an\	.	8aa/	.	.	4f\ 4e-\	.	4dd/	4dd\	.	4g/	4G/	.	4r	.	8gg\	.	4e-/ 4A/	.
.	.	.	.	.	.	.	.	.	.	8gg/	.	.	.	.	.	.	.	.	.	.	.	.	8ff\	.	.	.
4ccc\	.	4c'\	.	.	.	.	.	4ee-\ 4a\	.	8ffn/	.	.	4f\ 4e-\	.	4dd/	4dd\	.	4g/	4G/	.	4r	.	8ee-\	.	4e-/ 4A/	.
.	.	.	.	.	.	.	.	.	.	8dd/J	.	.	.	.	.	.	.	.	.	.	.	.	8cc\J)	.	.	.
=20	=20	=20	=20	=20	=20	=20	=20	=20	=20	=20	=20	=20	=20	=20	=20	=20	=20	=20	=20	=20	=20	=20	=20	=20	=20	=20
2ddd\	.	(8B-\L	.	2.BB-z/	z	2.BBB-z/	z	4r	.	2cc/	2.g\_	.	4r	.	4r	4ryy	.	[2.g/	[2.G/	.	4BB/	.	2b-\	.	(8d/ 8B-/L	.
.	.	8d\)	.	.	.	.	.	.	.	.	.	.	.	.	.	.	.	.	.	.	.	.	.	.	8f/)	.
.	.	(8e-\	.	.	.	.	.	4dd\ 4b-\	.	.	.	.	4f\ 4d\	.	4dd\	4g\	.	.	.	.	4r	.	.	.	(8g/	.
.	.	8d\	.	.	.	.	.	.	.	.	.	.	.	.	.	.	.	.	.	.	.	.	.	.	8f/	.
4bb-\	.	8c\	.	.	.	.	.	4dd\ 4b-\	.	4ee/	.	.	4f\ 4d\	.	4dd\	4g\	.	.	.	.	4r	.	4dd\	.	8e-/	.
.	.	8B-\J)	.	.	.	.	.	.	.	.	.	.	.	.	.	.	.	.	.	.	.	.	.	.	8d/J)	.
=21	=21	=21	=21	=21	=21	=21	=21	=21	=21	=21	=21	=21	=21	=21	=21	=21	=21	=21	=21	=21	=21	=21	=21	=21	=21	=21
(4ff\	.	2An/	.	2.BB-z/	z	2.BBB-z/	z	4r	.	4r	2.g\_	.	4r	.	4r	4ryy	.	4g/]	4G/]	.	4BB/	.	(4f/	.	4e-/ 4c'/	.
8gg-\L	.	.	.	.	.	.	.	4ee-\ 4an\	.	4dd/	.	.	4f\ 4e-\	.	4dd/	4dd\	.	4g/	4G/	.	4r	.	8g-/L	.	4e-/ 4c'/	.
8ggn\	.	.	.	.	.	.	.	.	.	.	.	.	.	.	.	.	.	.	.	.	.	.	8gn/	.	.	.
8aa-\	.	4f\	.	.	.	.	.	4ee-\ 4a\	.	4dd/	.	.	4f\ 4e-\	.	4dd/	4dd\	.	4g/	4G/	.	4r	.	8a-/	.	4e-/ 4c'/	.
8aan\J)	.	.	.	.	.	.	.	.	.	.	.	.	.	.	.	.	.	.	.	.	.	.	8an/J)	.	.	.
=22	=22	=22	=22	=22	=22	=22	=22	=22	=22	=22	=22	=22	=22	=22	=22	=22	=22	=22	=22	=22	=22	=22	=22	=22	=22	=22
2bb-\	.	2d\	.	2.BB-z/	z	2.BBB-z/	z	4r	.	4ee/	2.g\_	.	4r	.	4r	4ryy	.	[2.g/	[2.G/	.	16BB/LL	.	2b-\	.	(8d/ 8B-/L	.
.	.	.	.	.	.	.	.	.	.	.	.	.	.	.	.	.	.	.	.	.	16BB/	.	.	.	.	.
.	.	.	.	.	.	.	.	.	.	.	.	.	.	.	.	.	.	.	.	.	16BB/	.	.	.	8f/)	.
.	.	.	.	.	.	.	.	.	.	.	.	.	.	.	.	.	.	.	.	.	16BB/	.	.	.	.	.
.	.	.	.	.	.	.	.	4dd\ 4b-\	.	4gg/	.	.	4f\ 4d\	.	4dd\	4g\	.	.	.	.	16BB/	.	.	.	(8b-/	.
.	.	.	.	.	.	.	.	.	.	.	.	.	.	.	.	.	.	.	.	.	16BB/	.	.	.	.	.
.	.	.	.	.	.	.	.	.	.	.	.	.	.	.	.	.	.	.	.	.	16BB/	.	.	.	8f/	.
.	.	.	.	.	.	.	.	.	.	.	.	.	.	.	.	.	.	.	.	.	16BB/	.	.	.	.	.
4r	.	4r	.	.	.	.	.	4dd\ 4b-\	.	4gg/	.	.	4f\ 4d\	.	4dd\	4g\	.	.	.	.	16BB/	.	4ff\	.	8e-/	.
.	.	.	.	.	.	.	.	.	.	.	.	.	.	.	.	.	.	.	.	.	16BB/	.	.	.	.	.
.	.	.	.	.	.	.	.	.	.	.	.	.	.	.	.	.	.	.	.	.	16BB/	.	.	.	8d/J)	.
.	.	.	.	.	.	.	.	.	.	.	.	.	.	.	.	.	.	.	.	.	16BB/JJ	.	.	.	.	.
=23	=23	=23	=23	=23	=23	=23	=23	=23	=23	=23	=23	=23	=23	=23	=23	=23	=23	=23	=23	=23	=23	=23	=23	=23	=23	=23
4r	.	4An/	.	2.BB-z/	z	2.BBB-z/	z	4r	.	8ff#/L	2.g\_	.	4r	.	4r	4ryy	.	4g/]	4G/]	.	16BB/LL	.	(8een\L	.	4c/	.
.	.	.	.	.	.	.	.	.	.	.	.	.	.	.	.	.	.	.	.	.	16BB/	.	.	.	.	.
.	.	.	.	.	.	.	.	.	.	8gg/	.	.	.	.	.	.	.	.	.	.	16BB/	.	8ff\	.	.	.
.	.	.	.	.	.	.	.	.	.	.	.	.	.	.	.	.	.	.	.	.	16BB/	.	.	.	.	.
4ccc\	.	4F/	.	.	.	.	.	4ee-\ 4an\	.	8aa/	.	.	4f\ 4e-\	.	4dd/	4dd\	.	4g/	4G/	.	16BB/	.	8gg\	.	4e-/ 4An'/	.
.	.	.	.	.	.	.	.	.	.	.	.	.	.	.	.	.	.	.	.	.	16BB/	.	.	.	.	.
.	.	.	.	.	.	.	.	.	.	8gg/	.	.	.	.	.	.	.	.	.	.	16BB/	.	8ff\	.	.	.
.	.	.	.	.	.	.	.	.	.	.	.	.	.	.	.	.	.	.	.	.	16BB/	.	.	.	.	.
4ccc\	.	4f\	.	.	.	.	.	4ee-\ 4a\	.	8ffn/	.	.	4f\ 4e-\	.	4dd/	4dd\	.	4g/	4G/	.	16BB/	.	8ee-\	.	4e-/ 4A'/	.
.	.	.	.	.	.	.	.	.	.	.	.	.	.	.	.	.	.	.	.	.	16BB/	.	.	.	.	.
.	.	.	.	.	.	.	.	.	.	8dd/J	.	.	.	.	.	.	.	.	.	.	16BB/	.	8cc\J)	.	.	.
.	.	.	.	.	.	.	.	.	.	.	.	.	.	.	.	.	.	.	.	.	16BB/JJ	.	.	.	.	.
=24	=24	=24	=24	=24	=24	=24	=24	=24	=24	=24	=24	=24	=24	=24	=24	=24	=24	=24	=24	=24	=24	=24	=24	=24	=24	=24
2ddd\	.	4f\)	.	2.BB-z/	z	2.BBB-z/	z	4r	.	2cc/	2.g\]	.	4r	.	4r	4ryy	.	[2.g/	[2.G/	.	16BB/LL	.	2b-\	.	(8d/L	.
.	.	.	.	.	.	.	.	.	.	.	.	.	.	.	.	.	.	.	.	.	16BB/	.	.	.	.	.
.	.	.	.	.	.	.	.	.	.	.	.	.	.	.	.	.	.	.	.	.	16BB/	.	.	.	8f/	.
.	.	.	.	.	.	.	.	.	.	.	.	.	.	.	.	.	.	.	.	.	16BB/	.	.	.	.	.
.	.	(8d\L	.	.	.	.	.	4dd\ 4b-\	.	.	.	.	4f\ 4d\	.	4dd\	4g\	.	.	.	.	16BB/	.	.	.	8b-/	.
.	.	.	.	.	.	.	.	.	.	.	.	.	.	.	.	.	.	.	.	.	16BB/	.	.	.	.	.
.	.	8e-\	.	.	.	.	.	.	.	.	.	.	.	.	.	.	.	.	.	.	16BB/	.	.	.	8cc/	.
.	.	.	.	.	.	.	.	.	.	.	.	.	.	.	.	.	.	.	.	.	16BB/	.	.	.	.	.
4bb-\	.	8f\	.	.	.	.	.	4dd\ 4b-\	.	4ee/	.	.	4f\ 4d\	.	4dd\	4g\	.	.	.	.	16BB/	.	4bb-\	.	8dd/	.
.	.	.	.	.	.	.	.	.	.	.	.	.	.	.	.	.	.	.	.	.	16BB/	.	.	.	.	.
.	.	8d\J)	.	.	.	.	.	.	.	.	.	.	.	.	.	.	.	.	.	.	16BB/	.	.	.	8b-/J)	.
.	.	.	.	.	.	.	.	.	.	.	.	.	.	.	.	.	.	.	.	.	16BB/JJ	.	.	.	.	.
=25	=25	=25	=25	=25	=25	=25	=25	=25	=25	=25	=25	=25	=25	=25	=25	=25	=25	=25	=25	=25	=25	=25	=25	=25	=25	=25
(8aan\L	.	4c\	.	4BB-z/	z	4BBB-z/	z	4r	.	4r	4ryy	.	4r	.	4r	4ryy	.	4g/]	4G/]	.	16BB/LL	.	(8aan\L	.	4ee-\	.
.	.	.	.	.	.	.	.	.	.	.	.	.	.	.	.	.	.	.	.	.	16BB/	.	.	.	.	.
8bb-\	.	.	.	.	.	.	.	.	.	.	.	.	.	.	.	.	.	.	.	.	16BB/	.	8bb-\	.	.	.
.	.	.	.	.	.	.	.	.	.	.	.	.	.	.	.	.	.	.	.	.	16BB/	.	.	.	.	.
8ccc\	.	4An/	.	4BB-/	.	4BBB-/	.	4aan\ 4cc\	.	4ff\	4bn\	.	4f\ 4e-\	.	4dd/	4dd\	.	4g/	4G/	.	16BB/	.	8ccc\	.	4e-/ 4c/	.
.	.	.	.	.	.	.	.	.	.	.	.	.	.	.	.	.	.	.	.	.	16BB/	.	.	.	.	.
8ff\	.	.	.	.	.	.	.	.	.	.	.	.	.	.	.	.	.	.	.	.	16BB/	.	8ff\	.	.	.
.	.	.	.	.	.	.	.	.	.	.	.	.	.	.	.	.	.	.	.	.	16BB/	.	.	.	.	.
8gg\	.	4f\	.	4BB-/	.	4BBB-/	.	4aa\ 4cc\	.	4ff\	4b\	.	4f\ 4e-\	.	4dd/	4dd\	.	4g/	4G/	.	16BB/	.	8gg\	.	4e-/ 4c/	.
.	.	.	.	.	.	.	.	.	.	.	.	.	.	.	.	.	.	.	.	.	16BB/	.	.	.	.	.
8aa\J)	.	.	.	.	.	.	.	.	.	.	.	.	.	.	.	.	.	.	.	.	16BB/	.	8aa\J)	.	.	.
.	.	.	.	.	.	.	.	.	.	.	.	.	.	.	.	.	.	.	.	.	16BB/JJ	.	.	.	.	.
=26	=26	=26	=26	=26	=26	=26	=26	=26	=26	=26	=26	=26	=26	=26	=26	=26	=26	=26	=26	=26	=26	=26	=26	=26	=26	=26
*	*	*	*	*	*	*	*	*	*	*	*	*	*	*	*v	*v	*	*	*	*	*	*	*	*	*	*
4bb-\	.	4B-/	.	4BB-/	.	4BBB-/	.	4bb-\ 4dd\	.	4ee\	4cc\	.	4f\ 4d\	.	4dd\ 4g\	.	4g/	4G/	.	4BB/	.	4bb-\	.	4d/ 4B-/	.
4r	.	4r	.	4r	.	4r	.	4r	.	4r	4ryy	.	4r	.	4r	.	4r	4r	.	4r	.	4r	.	4r	.
=:!!:	=:!!:	=:!!:	=:!!:	=:!!:	=:!!:	=:!!:	=:!!:	=:!!:	=:!!:	=:!!:	=:!!:	=:!!:	=:!!:	=:!!:	=:!!:	=:!!:	=:!!:	=:!!:	=:!!:	=:!!:	=:!!:	=:!!:	=:!!:	=:!!:	=:!!:
*>B	*	*>B	*	*>B	*	*>B	*	*>B	*	*>B	*	*	*>B	*	*>B	*	*>B	*	*	*>B	*	*>B	*	*>B	*
4r	.	4B-'/	p	4BB-'/xx	p	4r	.	4r	.	4r	4r	.	4r	.	4r	.	4r	4r	.	4r	.	4B-'/	p	4B-'/	p
2ryy	.	2ryy	.	2ryy	.	2ryy	.	2ryy	.	2ryy	2ryy	.	2ryy	.	2ryy	.	2ryy	2ryy	.	2ryy	.	2ryy	.	2ryy	.
=27	=27	=27	=27	=27	=27	=27	=27	=27	=27	=27	=27	=27	=27	=27	=27	=27	=27	=27	=27	=27	=27	=27	=27	=27	=27
*	*	*	*	*	*	*	*	*	*	*	*	*	*	*	*^	*	*	*	*	*	*	*	*	*	*
2.r	.	4d'\	.	4D'\xx	.	2.r	.	2.r	.	2.r	2.r	.	2.r	.	2.r	2.r	.	2.r	2.r	.	2.r	.	4d'/	.	4d'/	.
.	.	4f'\	.	4F'\xx	.	.	.	.	.	.	.	.	.	.	.	.	.	.	.	.	.	.	4f'/	.	4f'/	.
.	.	4a-'\	.	4A-'\xx	.	.	.	.	.	.	.	.	.	.	.	.	.	.	.	.	.	.	4a-'/	.	4a-'/	.
=28	=28	=28	=28	=28	=28	=28	=28	=28	=28	=28	=28	=28	=28	=28	=28	=28	=28	=28	=28	=28	=28	=28	=28	=28	=28	=28
2.r	.	2.cc-\	.	2.c-\xx	.	2.r	.	2.r	.	2.r	2.r	.	2.r	.	2.r	2.r	.	2.r	2.r	.	2.r	.	(2cc-\	.	(2cc-\	.
.	.	.	.	.	.	.	.	.	.	.	.	.	.	.	.	.	.	.	.	.	.	.	4a-/)	.	4a-/)	.
=29	=29	=29	=29	=29	=29	=29	=29	=29	=29	=29	=29	=29	=29	=29	=29	=29	=29	=29	=29	=29	=29	=29	=29	=29	=29	=29
! 1.	!	!	!	!	!	!	!	!	!	!	!	!	! zu 2	!	!	!	!	!	!	!	!	!	!	!	!	!
(2.aa-\	p	(2.A-/	.	[2.D-\	p	[2.DD-\	p	(2.ff\ (2.cc-\	p	(2.gg\	(2.b-\	p	[2.D-\xx	p	2.r	2.r	.	2.r	2.r	.	2.r	.	4f'/	.	(2.c-/	.
.	.	.	.	.	.	.	.	.	.	.	.	.	.	.	.	.	.	.	.	.	.	.	4f'/	.	.	.
.	.	.	.	.	.	.	.	.	.	.	.	.	.	.	.	.	.	.	.	.	.	.	4f'/	.	.	.
!	!	!	!	!	!	!	!	!	!	!	!	!	! "D3" in Dover (missing flat). Df-7th chord (Df in Vc. e B.)	!	!	!	!	!	!	!	!	!	!	!	!	!
=30	=30	=30	=30	=30	=30	=30	=30	=30	=30	=30	=30	=30	=30	=30	=30	=30	=30	=30	=30	=30	=30	=30	=30	=30	=30	=30
2.bb-\	.	2.B-/	.	2.D-\]	.	2.DD-\]	.	2.gg-\ 2.b-\)	.	4aa-\)	4cc\)	.	2.D-\]	.	2.r	2.r	.	2.r	2.r	.	2.r	.	&(8g-/L)	.	2.B-/	.
.	.	.	.	.	.	.	.	.	.	.	.	.	.	.	.	.	.	.	.	.	.	.	8f/	.	.	.
.	.	.	.	.	.	.	.	.	.	4r	4ryy	.	.	.	.	.	.	.	.	.	.	.	8g-/	.	.	.
.	.	.	.	.	.	.	.	.	.	.	.	.	.	.	.	.	.	.	.	.	.	.	8a-/J&)	.	.	.
.	.	.	.	.	.	.	.	.	.	4r	4ryy	.	.	.	.	.	.	.	.	.	.	.	4g-'/	.	.	.
=31	=31	=31	=31	=31	=31	=31	=31	=31	=31	=31	=31	=31	=31	=31	=31	=31	=31	=31	=31	=31	=31	=31	=31	=31	=31	=31
!	!	!	!	!	!	!	!	!	!	!	!	!	! 1.	!	!	!	!	!	!	!	!	!	!	!	!	!
2.aa-\)	.	2.a-\)	.	(2.D-\	.	(2.DD-\	.	2.r	.	2.r	2.r	.	4c-'\	.	2.r	2.r	.	2.r	2.r	.	2.r	.	4cc-'\	.	2.f/)	.
.	.	.	.	.	.	.	.	.	.	.	.	.	4c-'\	.	.	.	.	.	.	.	.	.	4cc-'\	.	.	.
.	.	.	.	.	.	.	.	.	.	.	.	.	4c-'\	.	.	.	.	.	.	.	.	.	4cc-'\	.	.	.
=32	=32	=32	=32	=32	=32	=32	=32	=32	=32	=32	=32	=32	=32	=32	=32	=32	=32	=32	=32	=32	=32	=32	=32	=32	=32	=32
*	*	*	*	*	*	*	*	*	*	*v	*v	*	*	*	*	*	*	*	*	*	*	*	*	*	*	*
4ff\	.	4f'\	.	4Dn\)	.	4DDn\)	.	4aa-'\ 4ff\	.	4r	.	&(8B-\L)	.	2.r	2.r	.	2.r	2.r	.	2.r	.	&(8b-\L)	.	4a-'/	.
.	.	.	.	.	.	.	.	.	.	.	.	8An\	.	.	.	.	.	.	.	.	.	8an\	.	.	.
4r	.	4f'\	.	4d'\	.	4r	.	4aa-'\ 4ff\	.	4r	.	8B-\	.	.	.	.	.	.	.	.	.	8b-\	.	4a-'/	.
.	.	.	.	.	.	.	.	.	.	.	.	8c-\J&)	.	.	.	.	.	.	.	.	.	8cc-\J&)	.	.	.
!	!	!	!	!	!	!	!	!	!	! zu 2	!	!	!	!	!	!	!	!	!	!	!	!	!	!	!
4r	.	4f'\	.	4d'\	.	4r	.	4aa-'\ 4ff\	.	4cc'\	.	4B-'\	.	.	.	.	.	.	.	.	.	4b-'\	.	4a-'/	.
=33	=33	=33	=33	=33	=33	=33	=33	=33	=33	=33	=33	=33	=33	=33	=33	=33	=33	=33	=33	=33	=33	=33	=33	=33	=33
2.r	.	&(8e-\L)	.	&(8e-\L)	.	(2.EE-\	.	4ggn'\ 4ee-\	.	4cc'\	.	4d-'\	.	2.r	2.r	.	2.r	2.r	.	2.r	.	4dd-'\	.	&(8gn/L)	.
.	.	8d\	.	8d\	.	.	.	.	.	.	.	.	.	.	.	.	.	.	.	.	.	.	.	8f/	.
.	.	8e-\	.	8e-\	.	.	.	4r	.	4cc'\	.	4d-'\	.	.	.	.	.	.	.	.	.	4dd-'\	.	8g/	.
.	.	8f\J&)	.	8f\J&)	.	.	.	.	.	.	.	.	.	.	.	.	.	.	.	.	.	.	.	8a-/J&)	.
.	.	4e-'\	.	4e-'\	.	.	.	4r	.	4cc'\	.	4d-'\	.	.	.	.	.	.	.	.	.	4dd-'\	.	4g'/	.
=34	=34	=34	=34	=34	=34	=34	=34	=34	=34	=34	=34	=34	=34	=34	=34	=34	=34	=34	=34	=34	=34	=34	=34	=34	=34
2.r	.	4g'\	.	4en'\	.	4EEn\)	.	4bb-'\ 4gg\	.	4a'/	.	&(8c\L)	.	2.r	2.r	.	2.r	2.r	.	2.r	.	&(8cc\L)	.	4b-'\	.
.	.	.	.	.	.	.	.	.	.	.	.	8Bn\	.	.	.	.	.	.	.	.	.	8bn\	.	.	.
.	.	4g'\	.	4e'\	.	4r	.	4bb-'\ 4gg\	.	4r	.	8c\	.	.	.	.	.	.	.	.	.	8cc\	.	4b-'\	.
.	.	.	.	.	.	.	.	.	.	.	.	8d-\J&)	.	.	.	.	.	.	.	.	.	8dd-\J&)	.	.	.
.	.	4g'\	.	4e'\	.	4r	.	4bb-'\ 4gg\	.	4dd'\	.	4c'\	.	.	.	.	.	.	.	.	.	4cc'\	.	4b-'\	.
=35	=35	=35	=35	=35	=35	=35	=35	=35	=35	=35	=35	=35	=35	=35	=35	=35	=35	=35	=35	=35	=35	=35	=35	=35	=35
!	!	!	!	!	!	!	!	!	!	!	!	!	!	!	!	!	!	!	!	!	!	! cresc.	!	!	!
2.r	.	&(8f\L)	.	&(8f\L)	.	(2.FF\	.	4aan'\ 4ff\	.	4dd'\	.	4e-'\	.	2.r	2.r	.	2.r	2.r	.	2.r	.	4ee-'\	.	&(8an/L)	.
.	.	8en\	.	8en\	.	.	.	.	.	.	.	.	.	.	.	.	.	.	.	.	.	.	.	8g/	.
.	.	8f\	.	8f\	.	.	.	4r	.	4dd'\	.	4e-'\	.	.	.	.	.	.	.	.	.	4ee-'\	.	8a/	.
.	.	8g\J&)	.	8g\J&)	.	.	.	.	.	.	.	.	.	.	.	.	.	.	.	.	.	.	.	8b-/J&)	.
.	.	4f'\	.	4f'\	.	.	.	4r	.	4dd'\	.	4e-'\	.	.	.	.	.	.	.	.	.	4ee-'\	.	4a'/	.
=36	=36	=36	=36	=36	=36	=36	=36	=36	=36	=36	=36	=36	=36	=36	=36	=36	=36	=36	=36	=36	=36	=36	=36	=36	=36
!	!	! (cresc.)	!	!	!	!	!	!	!	!	!	!	!	!	!	!	!	!	!	!	!	!	!	! cresc.	!
2.r	.	4an'\	.	4f#'\	.	4FF#\)	.	4ccc'\ 4aan\	.	4bn\	.	&(8dn\L)	.	2.r	2.r	.	2.r	2.r	.	2.r	.	&(8ddn\L)	.	4cc'\	.
.	.	.	.	.	.	.	.	.	.	.	.	8c\	.	.	.	.	.	.	.	.	.	8cc\	.	.	.
.	.	4a'\	.	4f#'\	.	4r	.	4ccc'\ 4aa\	.	4r	.	8d\	.	.	.	.	.	.	.	.	.	8dd\	.	4cc'\	.
.	.	.	.	.	.	.	.	.	.	.	.	8e-\J&)	.	.	.	.	.	.	.	.	.	8ee-\J&)	.	.	.
.	.	4a'\	.	4f#'\	.	4r	.	4ccc'\ 4aa\	.	4ee'\	.	4d'\	.	.	.	.	.	.	.	.	.	4dd'\	.	4cc'\	.
=37	=37	=37	=37	=37	=37	=37	=37	=37	=37	=37	=37	=37	=37	=37	=37	=37	=37	=37	=37	=37	=37	=37	=37	=37	=37
! zu 2	!	!	!	!	!	!	!	!	!	!	!	! zu 2	!	!	!	!	!	!	!	!	!	!	!	!	!
4ddd'\	f	&(8g\L)	f	&(8g\L)	f	4GG'\	f	4bb-'\ 4gg\	.	4ee'\	f	2.G\	.	2.r	2.r	.	2.r	2.r	.	2.r	.	4ddd'\	f	&(8b-\L)	f
.	.	8f#\	.	8f#\	.	.	.	.	.	.	.	.	.	.	.	.	.	.	.	.	.	.	.	8an\	.
4ddd'\	.	8g\	.	8g\	.	4GG'\	.	4r	.	4ee'\	.	.	.	.	.	.	.	.	.	.	.	4ddd'\	.	8b-\	.
.	.	8an\J&)	.	8an\J&)	.	.	.	.	.	.	.	.	.	.	.	.	.	.	.	.	.	.	.	8cc\J&)	.
4ddd'\	.	4g'\	.	4g'\	.	4GG'\	.	4r	.	4ee'\	.	.	.	.	.	.	.	.	.	.	.	4ddd'\	.	4b-'\	.
=38	=38	=38	=38	=38	=38	=38	=38	=38	=38	=38	=38	=38	=38	=38	=38	=38	=38	=38	=38	=38	=38	=38	=38	=38	=38
&(8ff#\L)	.	2.an\	.	2.An\	.	2.AAn\	.	2.r	.	[2.ee\	.	2.An\	.	2.r	2.r	.	2.r	2.r	.	2.r	.	&(8ff#\L)	.	4cc'\	.
8een\	.	.	.	.	.	.	.	.	.	.	.	.	.	.	.	.	.	.	.	.	.	8een\	.	.	.
8ff#\	.	.	.	.	.	.	.	.	.	.	.	.	.	.	.	.	.	.	.	.	.	8ff#\	.	4cc'\	.
8gg\J&)	.	.	.	.	.	.	.	.	.	.	.	.	.	.	.	.	.	.	.	.	.	8gg\J&)	.	.	.
4ff#'\	.	.	.	.	.	.	.	.	.	.	.	.	.	.	.	.	.	.	.	.	.	4ff#'\	.	4cc'\	.
=39	=39	=39	=39	=39	=39	=39	=39	=39	=39	=39	=39	=39	=39	=39	=39	=39	=39	=39	=39	=39	=39	=39	=39	=39	=39
(8gg\L	.	4b-\	.	2.B-\	.	2.BB-\	.	2.r	.	2ee\]	.	2.B-\	.	2.r	2.r	.	2.r	2.r	.	2.r	.	(8gg\L	.	4dd\	.
8dd\	.	.	.	.	.	.	.	.	.	.	.	.	.	.	.	.	.	.	.	.	.	8dd\	.	.	.
8bb-\	.	4B-/	.	.	.	.	.	.	.	.	.	.	.	.	.	.	.	.	.	.	.	8bb-\	.	4d/	.
8gg\	.	.	.	.	.	.	.	.	.	.	.	.	.	.	.	.	.	.	.	.	.	8gg\	.	.	.
8dd\	.	4B-/	.	.	.	.	.	.	.	4r	.	.	.	.	.	.	.	.	.	.	.	8dd\	.	4d/	.
8b-\J)	.	.	.	.	.	.	.	.	.	.	.	.	.	.	.	.	.	.	.	.	.	8b-\J)	.	.	.
=40	=40	=40	=40	=40	=40	=40	=40	=40	=40	=40	=40	=40	=40	=40	=40	=40	=40	=40	=40	=40	=40	=40	=40	=40	=40
*	*	*	*	*	*	*	*	*	*	*^	*	*	*	*	*	*	*	*	*	*	*	*	*	*	*
(8an\L	.	2.c\	.	2.c\	.	2.C\	.	2.r	.	2.r	2.r	.	2.c\	.	2.r	2.r	.	2.r	2.r	.	2.r	.	(8an\L	.	2.e-/	.
8b-\	.	.	.	.	.	.	.	.	.	.	.	.	.	.	.	.	.	.	.	.	.	.	8b-\	.	.	.
8bn\	.	.	.	.	.	.	.	.	.	.	.	.	.	.	.	.	.	.	.	.	.	.	8bn\	.	.	.
8cc\	.	.	.	.	.	.	.	.	.	.	.	.	.	.	.	.	.	.	.	.	.	.	8cc\	.	.	.
8cc#\	.	.	.	.	.	.	.	.	.	.	.	.	.	.	.	.	.	.	.	.	.	.	8cc#\	.	.	.
8dd\J)	.	.	.	.	.	.	.	.	.	.	.	.	.	.	.	.	.	.	.	.	.	.	8dd\J)	.	.	.
=41	=41	=41	=41	=41	=41	=41	=41	=41	=41	=41	=41	=41	=41	=41	=41	=41	=41	=41	=41	=41	=41	=41	=41	=41	=41	=41
(4ee-\	.	4r	.	4r	.	4r	.	2.r	.	2.r	2.r	.	4r	.	2.r	2.r	.	2.r	2.r	.	2.r	.	(4ee-\	.	(4c/	.
4dd\)	.	4r	.	4r	.	4r	.	.	.	.	.	.	4r	.	.	.	.	.	.	.	.	.	4dd\)	.	4B-/)	.
!	!	!	!	!	!	!	!	!	!	!	!	!	! zu 2	!	!	!	!	!	!	!	!	!	!	!	!	!
4f#'/	.	4d'\	.	4d'\xx	f	4D'\xx	f	.	.	.	.	.	4d'\xx	f	.	.	.	.	.	.	.	.	4f#'/	.	4An'/	.
=42	=42	=42	=42	=42	=42	=42	=42	=42	=42	=42	=42	=42	=42	=42	=42	=42	=42	=42	=42	=42	=42	=42	=42	=42	=42	=42
4g/	.	2G/	.	4B-'\	.	4BB-'\	.	2.r	.	2.r	2.r	.	4B-'\	.	2.r	2.r	.	2.r	2.r	.	2.r	.	4g/	.	4G/	.
4r	.	.	.	4G'\	.	4GG'\	.	.	.	.	.	.	4G'\	.	.	.	.	.	.	.	.	.	4r	.	4r	.
4bb-'\xx	f	4b-'\xx	f	4D'\	.	4DD'\	.	.	.	.	.	.	4D'\	.	.	.	.	.	.	.	.	.	4bb-'\xx	f	4bb-'\xx	f
=43	=43	=43	=43	=43	=43	=43	=43	=43	=43	=43	=43	=43	=43	=43	=43	=43	=43	=43	=43	=43	=43	=43	=43	=43	=43	=43
4gg'\	.	4g'\	.	4BB-'/	.	4BBB-'/	.	2.r	.	2.r	2.r	.	4BB-'/	.	2.r	2.r	.	2.r	2.r	.	2.r	.	4gg'\	.	4gg'\	.
4dd'\	.	4d'\	.	4r	.	4r	.	.	.	.	.	.	4r	.	.	.	.	.	.	.	.	.	4dd'\	.	4dd'\	.
4b-'\	.	4B-'/	.	4g'\	.	4G'\	.	.	.	.	.	.	4g'\	.	.	.	.	.	.	.	.	.	4b-'\	.	4b-'\	.
=44	=44	=44	=44	=44	=44	=44	=44	=44	=44	=44	=44	=44	=44	=44	=44	=44	=44	=44	=44	=44	=44	=44	=44	=44	=44	=44
*	*	*	*	*	*	*	*	*	*	*	*	*	*	*	*v	*v	*	*	*	*	*	*	*	*	*	*
4g'/	.	4G'/	.	4e-'\	.	4E-'\	.	4r	.	4r	4r	.	4e-'\	.	4r	.	2.r	2.r	.	2.r	.	4g'/	.	4g'/	.
4r	.	4r	.	4B-'\	.	4BB-'\	.	4r	.	4r	4r	.	4B-'\	.	4r	.	.	.	.	.	.	4r	.	4r	.
4bb-'\xx 4gg\	f	4b-'\xx	f	4G'\	.	4GG'\	.	4bb-'\xx 4gg\	f	4ccc'\xx	4cc\	f	4E-'\	.	4cc/xx 4c'/	f	.	.	.	.	.	4bb-'\xx	f	4bb-'\xx	f
=45	=45	=45	=45	=45	=45	=45	=45	=45	=45	=45	=45	=45	=45	=45	=45	=45	=45	=45	=45	=45	=45	=45	=45	=45	=45
*	*	*	*	*	*	*	*	*	*	*	*	*	*	*	*^	*	*	*	*	*	*	*	*	*	*
4gg'\ 4ee-\	.	4g'\	.	4E-'\	.	4EE-'\	.	4gg'\ 4ee-\	.	4aa'\	4a\	.	4G'\	.	4ee/	4e'/	.	2.r	2.r	.	2.r	.	4gg'\	.	4gg'\	.
4ee-'\ 4b-\	.	4e-'\	.	4r	.	4r	.	4ee-'\ 4b-\	.	4ff'\	4f\	.	4B-'\	.	4gg'\	4g\	.	.	.	.	.	.	4ee-'\	.	4ee-'\	.
4b-/ 4g'/	.	4B-'/	.	4r	.	4r	.	4b-/ 4g'/	.	4cc/	4c'/	.	4e-'\	.	4ccc'\	4cc\	.	.	.	.	.	.	4b-'\	.	4b-'\	.
=46	=46	=46	=46	=46	=46	=46	=46	=46	=46	=46	=46	=46	=46	=46	=46	=46	=46	=46	=46	=46	=46	=46	=46	=46	=46	=46
*	*	*	*	*	*	*	*	*	*	*v	*v	*	*	*	*	*	*	*	*	*	*	*	*	*	*	*
*	*	*	*	*	*	*	*	*	*	*	*	*	*	*v	*v	*	*	*	*	*	*	*	*	*	*
*	*	*	*	*	*	*	*	*	*	*	*	*	*	*	*	*v	*v	*	*	*	*	*	*	*
4g/ 4e-'/xx	.	4G'/	.	4r	.	4r	.	4g/ 4e-'/	.	4a/ 4A'/	.	4g'\	.	4eee'\ 4ee\	.	4r	.	4r	.	4g'/	.	4g'/	.
4r	.	4r	.	4r	.	4r	.	4r	.	4r	.	4r	.	4r	.	4r	.	4r	.	4r	.	4r	.
! 1.	!	!	!	!	!	!	!	! zu 2	!	!	!	!	!	!	!	!	!	!	!	!	!	!	!
4ee-'\	.	4B-'/	.	4G'\	.	4GG'\	.	4ee-'\	.	4r	.	4B-'\	.	4r	.	4cc/xx 4c'/	f	4E'\xx	f	4e-'/	.	4e-'/	.
=47	=47	=47	=47	=47	=47	=47	=47	=47	=47	=47	=47	=47	=47	=47	=47	=47	=47	=47	=47	=47	=47	=47	=47
*	*	*	*	*	*	*	*	*	*	*^	*	*	*	*^	*	*^	*	*	*	*	*	*	*
4dd'\	.	4A-'/	.	4F'\	.	4FF'\	.	4dd'\	.	2.r	2.r	.	4A-'\	.	2.r	2.r	.	4g/	4G'/	.	4BB'/	.	4d'/	.	4d'/	.
4dd'\	.	4A-'/	.	4F'\	.	4FF'\	.	4dd'\	.	.	.	.	4A-'\	.	.	.	.	4g/	4G'/	.	4BB'/	.	4d'/	.	4d'/	.
4cc'\	.	4G'/	.	4E-'\	.	4EE-'\	.	4cc'\	.	.	.	.	4G'\	.	.	.	.	4g/	4G'/	.	4BB'/	.	4c'/	.	4c'/	.
=48	=48	=48	=48	=48	=48	=48	=48	=48	=48	=48	=48	=48	=48	=48	=48	=48	=48	=48	=48	=48	=48	=48	=48	=48	=48	=48
*	*	*	*	*	*	*	*	*	*	*	*	*	*	*	*v	*v	*	*	*	*	*	*	*	*	*	*
*	*	*	*	*	*	*	*	*	*	*	*	*	*	*	*	*	*v	*v	*	*	*	*	*	*	*
4b-'\	.	4F'/	.	4D'\	.	4DD'\	.	4b-'\	.	4r	2ryy	.	4F'\	.	4r	.	4g/ 4G'/	.	4BB'/	.	4B-'/	.	4B-'/	.
4r	.	4r	.	4r	.	4r	.	4r	.	4r	.	.	4r	.	4r	.	4r	.	4r	.	4r	.	4r	.
4bb-'\ 4d'\	.	4b-'\	.	4r	.	4r	.	4bb-'\ 4dd\	.	4ccc'\	4cc\	.	4BB-'/	.	4gg'\ 4g\	.	4r	.	4r	.	4bb-'\	.	4bb-'\	.
=49	=49	=49	=49	=49	=49	=49	=49	=49	=49	=49	=49	=49	=49	=49	=49	=49	=49	=49	=49	=49	=49	=49	=49	=49
*	*	*	*	*	*	*	*	*	*	*	*	*	*	*	*^	*	*^	*	*	*	*	*	*	*
4aa-'\ 4f\	.	4a-'\	.	2.r	.	2.r	.	4aa-'\ 4ff\	.	4bb-'\	4b-\	.	4D'\	.	4gg'\	4dd\	.	2.r	2.r	.	2.r	.	4aa-'\	.	4aa-'\	.
4ff'\ 4a-\	.	4f'\	.	.	.	.	.	4ff'\ 4a-\	.	4gg'\	4g\	.	4F'\	.	4gg'\	4ff\	.	.	.	.	.	.	4ff'\	.	4ff'\	.
4dd/ 4f'/	.	4d'\	.	.	.	.	.	4dd/ 4f'/	.	4ee/	4e'/	.	4A-'\	.	4gg'\	4ff\	.	.	.	.	.	.	4dd'\	.	4dd'\	.
=50	=50	=50	=50	=50	=50	=50	=50	=50	=50	=50	=50	=50	=50	=50	=50	=50	=50	=50	=50	=50	=50	=50	=50	=50	=50	=50
*	*	*	*	*	*	*	*	*	*	*v	*v	*	*	*	*	*	*	*	*	*	*	*	*	*	*	*
*	*	*	*	*	*	*	*	*	*	*	*	*	*	*v	*v	*	*	*	*	*	*	*	*	*	*
*	*	*	*	*	*	*	*	*	*	*	*	*	*	*	*	*v	*v	*	*	*	*	*	*	*
4b-/ 4d'/	.	4B-'/	.	4r	.	4r	.	4b-/ 4d'/	.	4cc/ 4c'/	.	4A-'\	.	4gg'\ 4dd\	.	4r	.	4r	.	4b-'\	.	4b-'\	.
4r	.	4r	.	4r	.	4r	.	4r	.	4r	.	4r	.	4r	.	4r	.	4r	.	4r	.	4r	.
4r	.	4cz'\	z	4cz'\	z	4Cz'\	z	4r	.	4r	.	4r	.	4r	.	4ccz/ 4c/	z	4Ez'\	z	4a-z'/	z	4e-z/	z
=51	=51	=51	=51	=51	=51	=51	=51	=51	=51	=51	=51	=51	=51	=51	=51	=51	=51	=51	=51	=51	=51	=51	=51
*	*	*	*	*	*	*	*	*	*	*^	*	*	*	*^	*	*^	*	*	*	*	*	*	*
2.r	.	4B-'/	.	4B-'\	.	4BB-'\	.	2.r	.	2.r	2.r	.	2.r	.	2.r	2.r	.	2cc/	2c/	.	4E'\	.	4g'/	.	2e-/	.
.	.	4B-'/	.	4B-'\	.	4BB-'\	.	.	.	.	.	.	.	.	.	.	.	.	.	.	4E'\	.	4g'/	.	.	.
.	.	4A-z'/	z	4A-z'\	z	4AA-z'\	z	.	.	.	.	.	.	.	.	.	.	4ccz/	4c/	z	4Ez'\	z	4ccz'\	z	4e-z/	z
=52	=52	=52	=52	=52	=52	=52	=52	=52	=52	=52	=52	=52	=52	=52	=52	=52	=52	=52	=52	=52	=52	=52	=52	=52	=52	=52
*	*	*	*	*	*	*	*	*	*	*	*	*	*	*	*v	*v	*	*	*	*	*	*	*	*	*	*
*	*	*	*	*	*	*	*	*	*	*	*	*	*	*	*	*	*v	*v	*	*	*	*	*	*	*
4r	.	4G'/	.	4G'\	.	4GG'\	.	4r	.	2.r	2.r	.	2.r	.	4r	.	2cc/ 2c/	.	4E'\	.	4b-'\	.	2e-/	.
4r	.	4G'/	.	4G'\	.	4GG'\	.	4r	.	.	.	.	.	.	4r	.	.	.	4E'\	.	4b-'\	.	.	.
! 1.	!	!	!	!	!	!	!	! zu 2	!	!	!	!	!	!	!	!	!	!	!	!	!	!	!	!
(4ee-z\	z	(4gz\	z	4r	.	4r	.	(4gz/	z	.	.	.	.	.	4ggz\ 4g\	z	4r	.	4r	.	(4ee-z\	z	[4b-z\	z
=53	=53	=53	=53	=53	=53	=53	=53	=53	=53	=53	=53	=53	=53	=53	=53	=53	=53	=53	=53	=53	=53	=53	=53	=53
*	*	*	*	*	*	*	*	*	*	*	*	*	*	*	*^	*	*^	*	*	*	*	*	*	*
4dd\)	.	4f\)	.	2.r	.	2.r	.	4f/)	.	2.r	2.r	.	2.r	.	4gg\	4g\	.	2.r	2.r	.	2.r	.	4dd\)	.	4b-\]	.
(4ffz\	z	(4a-z\	z	.	.	.	.	(4a-z/	z	.	.	.	.	.	4ggz\	4g\	z	.	.	.	.	.	(4ffz\	z	2b-z\	z
4ee-\)	.	4g\)	.	.	.	.	.	4g/)	.	.	.	.	.	.	4gg\	4g\	.	.	.	.	.	.	4ee-\)	.	.	.
=54	=54	=54	=54	=54	=54	=54	=54	=54	=54	=54	=54	=54	=54	=54	=54	=54	=54	=54	=54	=54	=54	=54	=54	=54	=54	=54
*	*	*	*	*	*	*	*	*	*	*v	*v	*	*	*	*	*	*	*	*	*	*	*	*	*	*	*
(4aa-\	.	(4cz\	z	(4cz\	z	(4Cz\	z	4ee-\	.	4r	.	(4cz\	z	4ccz/	4c/	z	4ccz/	4c/	z	4Ez\	z	(4aa-z\	z	2ee-z/ 2e-/	z
4gg\)	.	4B-/)	.	4B-\)	.	4BB-\)	.	4ee-\	.	4r	.	4B-\)	.	4cc/	4c/	.	4cc/	4c/	.	4E\	.	4gg\)	.	.	.
!	!	!	!	!	!	!	!	!	!	! zu 2	!	!	!	!	!	!	!	!	!	!	!	!	!	!	!
(4cccz\	z	(4A-z/	z	(4A-z\	z	(4AA-z\	z	(4cccz\ [4ee-\	z	(4ddz\	z	(4A-z\	z	4ccz/	4c/	z	4ccz/	4c/	z	4Ez\	z	(4cccz\	z	[4ee-z/ [4e-/	z
=55	=55	=55	=55	=55	=55	=55	=55	=55	=55	=55	=55	=55	=55	=55	=55	=55	=55	=55	=55	=55	=55	=55	=55	=55	=55
4bb-\)	.	4G/)	.	4G\)	.	4GG\)	.	4bb-\ 4ee-\])	.	4cc\)	.	4G\)	.	4cc/	4c/	.	4cc/	4c/	.	4E\	.	4bb-\)	.	4ee-/ 4e-/]	.
4dddz'\xx	z	4Fz'/	z	(4Fz\	z	(4FFz\	z	4aa-z'\xx 4dd\	z	4ggz'\xx 4ee\	z	(4Fz\	z	4ddz'\xx	4g\	z	4ddz'\xx	4g\	z	4r	.	4dddz'\	z	4aa-z'\	z
4eee-'\	.	4E-'/	.	4E-\)	.	4EE-\)	.	4gg'\ 4ee-\	.	4aa'\ 4ff\	.	4E-\)	.	4ee'\	4cc\	.	4ee'\	4cc\	.	4r	.	4eee-'\	.	4gg'\	.
=56	=56	=56	=56	=56	=56	=56	=56	=56	=56	=56	=56	=56	=56	=56	=56	=56	=56	=56	=56	=56	=56	=56	=56	=56	=56
*	*	*	*	*	*	*	*	*	*	*	*	*	*	*v	*v	*	*	*	*	*	*	*	*	*	*
2fff;\	.	2D;/	.	2D;\	.	2DD;\	.	2aa-;\ 2ff\	.	2bb-;\ 2gg\	.	2D;\	.	2dd;\ 2g\	.	2dd;\	2g\	.	16BB/LL	.	2fff;\	.	2aa-;\ 2b-\	.
.	.	.	.	.	.	.	.	.	.	.	.	.	.	.	.	.	.	.	16BB/	.	.	.	.	.
.	.	.	.	.	.	.	.	.	.	.	.	.	.	.	.	.	.	.	16BB/	.	.	.	.	.
.	.	.	.	.	.	.	.	.	.	.	.	.	.	.	.	.	.	.	16BB/	.	.	.	.	.
.	.	.	.	.	.	.	.	.	.	.	.	.	.	.	.	.	.	.	16BB/	.	.	.	.	.
.	.	.	.	.	.	.	.	.	.	.	.	.	.	.	.	.	.	.	16BB/	.	.	.	.	.
.	.	.	.	.	.	.	.	.	.	.	.	.	.	.	.	.	.	.	16BB/	.	.	.	.	.
.	.	.	.	.	.	.	.	.	.	.	.	.	.	.	.	.	.	.	16BB/JJ	.	.	.	.	.
4r	.	4r	.	4r	.	4r	.	4r	.	4r	.	4r	.	4r	.	4r	4ryy	.	4r	.	4An/	p	4r	.
=57	=57	=57	=57	=57	=57	=57	=57	=57	=57	=57	=57	=57	=57	=57	=57	=57	=57	=57	=57	=57	=57	=57	=57	=57
*	*	*	*	*	*	*	*	*	*	*^	*	*	*	*^	*	*	*	*	*	*	*	*	*	*
2.r	.	2.r	.	2.r	.	2.r	.	2.r	.	2.r	2.r	.	2.r	.	2.r	2.r	.	2.r	2.r	.	2.r	.	(4B-/	.	2.r	.
.	.	.	.	.	.	.	.	.	.	.	.	.	.	.	.	.	.	.	.	.	.	.	4d/	.	.	.
.	.	.	.	.	.	.	.	.	.	.	.	.	.	.	.	.	.	.	.	.	.	.	4f/)	.	.	.
=58	=58	=58	=58	=58	=58	=58	=58	=58	=58	=58	=58	=58	=58	=58	=58	=58	=58	=58	=58	=58	=58	=58	=58	=58	=58	=58
2.r	.	(2Bn/	p	(2Bn\	p	(2BBn\	p	2.r	.	2.r	2.r	.	2.r	.	2.r	2.r	.	2.r	2.r	.	2.r	.	(2a-/	.	(2f/	p
.	.	4c\)	.	4c\)	.	4C\)	.	.	.	.	.	.	.	.	.	.	.	.	.	.	.	.	4g/)	.	4e-/)	.
=59	=59	=59	=59	=59	=59	=59	=59	=59	=59	=59	=59	=59	=59	=59	=59	=59	=59	=59	=59	=59	=59	=59	=59	=59	=59	=59
2.r	.	(2A-/	.	(2A-\	.	(2AA-\	.	2.r	.	2.r	2.r	.	2.r	.	2.r	2.r	.	2.r	2.r	.	2.r	.	(4.ccS\	.	(4.e-/	.
.	.	.	.	.	.	.	.	.	.	.	.	.	.	.	.	.	.	.	.	.	.	.	8dd\	.	8f/	.
.	.	4An/)	.	4An\)	.	4AAn\)	.	.	.	.	.	.	.	.	.	.	.	.	.	.	.	.	4ee-\)	.	4g-/)	.
=60	=60	=60	=60	=60	=60	=60	=60	=60	=60	=60	=60	=60	=60	=60	=60	=60	=60	=60	=60	=60	=60	=60	=60	=60	=60	=60
2.r	.	2.B-/	.	2.B-\	.	2.BB-\	.	2.r	.	2.r	2.r	.	2.r	.	2.r	2.r	.	2.r	2.r	.	2.r	.	(2e-/	.	2.e-/ 2.Gn/	.
.	.	.	.	.	.	.	.	.	.	.	.	.	.	.	.	.	.	.	.	.	.	.	4g/)	.	.	.
=61	=61	=61	=61	=61	=61	=61	=61	=61	=61	=61	=61	=61	=61	=61	=61	=61	=61	=61	=61	=61	=61	=61	=61	=61	=61	=61
*	*	*	*	*	*	*	*	*	*	*	*	*	*	*	*v	*v	*	*	*	*	*	*	*	*	*	*
*	*	*	*	*	*	*	*	*	*	*	*	*	*	*	*	*	*v	*v	*	*	*	*	*	*	*
2.r	.	2.F/	.	2BB-/	.	2BBB-/	.	2.r	.	2.r	2.r	.	2.r	.	4r	.	4r	.	4r	.	(4b-\	.	2.d/ 2.A-/	.
.	.	.	.	.	.	.	.	.	.	.	.	.	.	.	4r	.	4r	.	4r	.	4a-/	.	.	.
.	.	.	.	4B-'\	f	4BB-'\	f	.	.	.	.	.	.	.	4gg'\ 4g\	f	4gg'\ 4g\	f	4BB/	f	4f/)	.	.	.
=62	=62	=62	=62	=62	=62	=62	=62	=62	=62	=62	=62	=62	=62	=62	=62	=62	=62	=62	=62	=62	=62	=62	=62	=62
*	*	*	*	*	*	*	*	*	*	*	*	*	*	*	*^	*	*^	*	*	*	*	*	*	*
4r	.	4G/	.	4G'\	.	4GG'\	.	4r	.	4r	2ryy	.	4r	.	4ee/	4e'/	.	4ee/	4e'/	.	4E\	.	4e-/	.	4e-/ 4G/	.
4r	.	4r	.	4E-'\	.	4EE-'\	.	4r	.	4r	.	.	4r	.	4cc/	4c'/	.	4cc/	4c'/	.	4r	.	4r	.	4r	.
! zu 2	!	!	!	!	!	!	!	! zu 2	!	!	!	!	!	!	!	!	!	!	!	!	!	!	!	!	!	!
4bb-'\	f	4d\	f	4BB-'/	.	4BBB-'/	.	4bb-'\	f	4gg\	4ee\	f	4f\ 4d\	f	4g/	4G'/	.	4g/	4G'/	.	4BB/	.	4bb-'\	f	4f/	f
=63	=63	=63	=63	=63	=63	=63	=63	=63	=63	=63	=63	=63	=63	=63	=63	=63	=63	=63	=63	=63	=63	=63	=63	=63	=63	=63
4gg'\	.	2e-\	.	4E-'\	.	4EE-'\	.	4gg'\	.	2aa\	2ff\	.	2g\ 2e-\	.	4cc/	4c'/	.	4cc/	4c'/	.	4E\	.	4gg'\	.	(4g/	.
4ee-'\	.	.	.	4G'\	.	4GG'\	.	4ee-'\	.	.	.	.	.	.	4ee/	4e'/	.	4ee/	4e'/	.	4r	.	4ee-'\	.	4b-\)	.
4b-'\	.	4d\	.	4B-'\	.	4BB-'\	.	4b-'\	.	4gg\	4ee\	.	4f\ 4d\	.	4gg'\	4g\	.	4gg'\	4g\	.	4BB/	.	4b-'\	.	4f'/	.
=64	=64	=64	=64	=64	=64	=64	=64	=64	=64	=64	=64	=64	=64	=64	=64	=64	=64	=64	=64	=64	=64	=64	=64	=64	=64	=64
4ee-'\	.	2e-\	.	4G'\	.	4GG'\	.	4ee-'\	.	2aa\	2ff\	.	2g\ 2e-\	.	4ee/	4e'/	.	4ee/	4e'/	.	4E\	.	4ee-'\	.	(4g/	.
4gg'\	.	.	.	4E-'\	.	4EE-'\	.	4gg'\	.	.	.	.	.	.	4cc/	4c'/	.	4cc/	4c'/	.	4r	.	4gg'\	.	4b-\)	.
4bb-'\	.	4d\	.	4BB-'/	.	4BBB-'/	.	4bb-'\	.	4gg\	4ee\	.	4f\ 4d\	.	4g/	4G'/	.	4g/	4G'/	.	4BB/	.	4bb-'\	.	4f'/	.
=65	=65	=65	=65	=65	=65	=65	=65	=65	=65	=65	=65	=65	=65	=65	=65	=65	=65	=65	=65	=65	=65	=65	=65	=65	=65	=65
4gg'\	.	2e-\	.	4E-'\	.	4EE-'\	.	4gg'\	.	2aa\	2ff\	.	2g\ 2e-\	.	4cc/	4c'/	.	4cc/	4c'/	.	4E\	.	4gg'\	.	(4g/	.
4ee-'\	.	.	.	4G'\	.	4GG'\	.	4ee-'\	.	.	.	.	.	.	4ee/	4e'/	.	4ee/	4e'/	.	4E\	.	4ee-'\	.	4b-\)	.
4b-'\	.	4d\	.	4B-'\	.	4BB-'\	.	4b-'\	.	4gg\	4ee\	.	4f\ 4d\	.	4gg'\	4g\	.	4gg'\	4g\	.	4BB/	.	4b-'\	.	4f'/	.
=66	=66	=66	=66	=66	=66	=66	=66	=66	=66	=66	=66	=66	=66	=66	=66	=66	=66	=66	=66	=66	=66	=66	=66	=66	=66	=66
4ee-'\	.	2e-\	.	4G'\	.	4GG'\	.	4ee-'\	.	2aa\	2ff\	.	2g\ 2e-\	.	4ee/	4e'/	.	4ee/	4e'/	.	4E\	.	4ee-'\	.	(4g/	.
4gg'\	.	.	.	4E-'\	.	4EE-'\	.	4gg'\	.	.	.	.	.	.	4cc/	4c'/	.	4cc/	4c'/	.	4E\	.	4gg'\	.	4b-\)	.
4bb-'\	.	4d'\	.	4BB-'/	.	4BBB-'/	.	4bb-'\	.	4gg\	4ee\	.	4f\ 4d\	.	4g/	4G'/	.	4g/	4G'/	.	4BB/	.	4bb-'\	.	4f'/	.
=67	=67	=67	=67	=67	=67	=67	=67	=67	=67	=67	=67	=67	=67	=67	=67	=67	=67	=67	=67	=67	=67	=67	=67	=67	=67	=67
4gg'\	.	4e-'\	.	4E-'\	.	4EE-'\	.	4gg'\	.	4aa\	4ff\	.	4g\ 4e-\	.	4cc/	4c'/	.	4cc/	4c'/	.	4E\	.	4gg'\	.	(4g/	.
4eee-'\	.	4g'\	.	4G'\	.	4GG'\	.	4ee-'\	.	4aa\	4ff\	.	4g\ 4e-\	.	4ee/	4e'/	.	4ee/	4e'/	.	4E\	.	4ee-'\	.	4b-\)	.
4ddd'\	.	4b-'\	.	4B-'\	.	4BB-'\	.	4ff'\ 4dd\	.	4gg\	4ee\	.	4f\ 4d\	.	4dd/	4g'/	.	4dd/	4g'/	.	4BB/	.	4ff/ 4b-/ 4d'/	.	4ff/ 4b-/ 4d'/	.
=68	=68	=68	=68	=68	=68	=68	=68	=68	=68	=68	=68	=68	=68	=68	=68	=68	=68	=68	=68	=68	=68	=68	=68	=68	=68	=68
*	*	*	*	*	*	*	*	*	*	*	*	*	*^	*	*	*	*	*	*	*	*	*	*	*	*	*
*	*	*	*	*	*	*	*	*	*	*	*	*	*	*	*	*v	*v	*	*	*	*	*	*	*	*	*	*
*	*	*	*	*	*	*	*	*	*	*	*	*	*	*	*	*	*	*v	*v	*	*	*	*	*	*	*
4eee-'\	.	4e-'\	.	4e-'\	.	4E-'\	.	4gg'\ 4ee-\	.	4ff/	4ff\	.	4e-/	4e-\	.	4cc/ 4e'/	.	4cc/ 4e'/	.	4E\	.	4gg/ 4b-/ 4e-'/	.	4gg/ 4b-/ 4e-'/	.
4r	.	4r	.	4r	.	4r	.	4r	.	4r	4ryy	.	4r	4ryy	.	4r	.	4r	.	4r	.	4r	.	4r	.
=:|!	=:|!	=:|!	=:|!	=:|!	=:|!	=:|!	=:|!	=:|!	=:|!	=:|!	=:|!	=:|!	=:|!	=:|!	=:|!	=:|!	=:|!	=:|!	=:|!	=:|!	=:|!	=:|!	=:|!	=:|!	=:|!
*>C	*	*>C	*	*>C	*	*>C	*	*>C	*	*	*	*	*	*	*	*>C	*	*>C	*	*>C	*	*>C	*	*>C	*
*k[]	*	*k[]	*	*k[]	*	*k[]	*	*k[]	*	*	*	*	*	*	*	*k[]	*	*k[]	*	*k[]	*	*k[]	*	*k[]	*
*C:	*	*C:	*	*C:	*	*C:	*	*C:	*	*	*	*	*	*	*	*C:	*	*C:	*	*C:	*	*C:	*	*C:	*
*M3/4	*	*M3/4	*	*M3/4	*	*M3/4	*	*M3/4	*	*	*	*	*	*	*	*M3/4	*	*M3/4	*	*M3/4	*	*M3/4	*	*M3/4	*
! Trio	!	! Trio	!	! Trio	!	! Trio	!	! Trio	!	!	!	!	!	!	!	! Trio	!	! Trio	!	! Trio	!	! Trio	!	! Trio	!
*	*	*	*	*	*	*	*	*	*	*v	*v	*	*	*	*	*	*	*	*	*	*	*	*	*	*
*	*	*	*	*	*	*	*	*	*	*>C	*	*	*	*	*	*	*	*	*	*	*	*	*	*
*	*	*	*	*	*	*	*	*	*	*k[]	*	*	*	*	*	*	*	*	*	*	*	*	*	*
*	*	*	*	*	*	*	*	*	*	*C/a:	*	*	*	*	*	*	*	*	*	*	*	*	*	*
*	*	*	*	*	*	*	*	*	*	*M3/4	*	*	*	*	*	*	*	*	*	*	*	*	*	*
!	!	!	!	!	!	!	!	!	!	! Trio	!	!	!	!	!	!	!	!	!	!	!	!	!	!
!	!	!	!	!	!	!	!	!	!	!	!	!	!	!	!	!	!	!	!	!	!	!	!	!
*	*	*	*	*	*	*	*	*	*	*	*	*v	*v	*	*	*	*	*	*	*	*	*	*	*
*	*	*	*	*	*	*	*	*	*	*	*	*>C	*	*	*	*	*	*	*	*	*	*	*
*	*	*	*	*	*	*	*	*	*	*	*	*k[]	*	*	*	*	*	*	*	*	*	*	*
*	*	*	*	*	*	*	*	*	*	*	*	*C/a:	*	*	*	*	*	*	*	*	*	*	*
*	*	*	*	*	*	*	*	*	*	*	*	*M3/4	*	*	*	*	*	*	*	*	*	*	*
!	!	!	!	!	!	!	!	!	!	!	!	! Trio	!	!	!	!	!	!	!	!	!	!	!
!	!	!	!	!	!	!	!	!	!	!	!	!	!	!	!	!	!	!	!	!	!	!	!
4r	.	4r	.	4r	.	4r	.	4gg'\ 4g\	p	4r	.	4r	.	4r	.	4r	.	4r	.	4r	.	4r	.
2ryy	.	2ryy	.	2ryy	.	2ryy	.	2ryy	.	2ryy	.	2ryy	.	2ryy	.	2ryy	.	2ryy	.	2ryy	.	2ryy	.
=69	=69	=69	=69	=69	=69	=69	=69	=69	=69	=69	=69	=69	=69	=69	=69	=69	=69	=69	=69	=69	=69	=69	=69
*	*	*	*	*	*	*	*	*	*	*^	*	*	*	*^	*	*^	*	*	*	*	*	*	*
2.r	.	2.r	.	2.r	.	2.r	.	4gg'\ 4g\	.	2.r	2.r	.	2.r	.	2.r	2.r	.	2.r	2.r	.	2.r	.	2.r	.	2.r	.
.	.	.	.	.	.	.	.	4gg'\ 4g\	.	.	.	.	.	.	.	.	.	.	.	.	.	.	.	.	.	.
.	.	.	.	.	.	.	.	4gg'\ 4g\	.	.	.	.	.	.	.	.	.	.	.	.	.	.	.	.	.	.
=70	=70	=70	=70	=70	=70	=70	=70	=70	=70	=70	=70	=70	=70	=70	=70	=70	=70	=70	=70	=70	=70	=70	=70	=70	=70	=70
*	*	*	*	*	*	*	*	*	*	*v	*v	*	*	*	*	*	*	*	*	*	*	*	*	*	*	*
*	*	*	*	*	*	*	*	*	*	*	*	*	*	*v	*v	*	*	*	*	*	*	*	*	*	*
*	*	*	*	*	*	*	*	*	*	*	*	*	*	*	*	*v	*v	*	*	*	*	*	*	*
4r	.	4r	.	4r	.	4r	.	4gg'\ 4g\	.	4r	.	4r	.	4r	.	4r	.	4r	.	4r	.	4r	.
4r	.	4r	.	4r	.	4r	.	4r	.	4r	.	4r	.	4r	.	4r	.	4r	.	4r	.	4r	.
=!|:	=!|:	=!|:	=!|:	=!|:	=!|:	=!|:	=!|:	=!|:	=!|:	=!|:	=!|:	=!|:	=!|:	=!|:	=!|:	=!|:	=!|:	=!|:	=!|:	=!|:	=!|:	=!|:	=!|:
!	!	!	!	!	!	!	!	! 1. Solo	!	!	!	!	!	!	!	!	!	!	!	!	!	!	!
4r	.	4r	.	4r	.	4r	.	4gg'\	.	4r	.	4r	.	4r	.	4r	.	4r	.	4gg'\	p	4r	.
2ryy	.	2ryy	.	2ryy	.	2ryy	.	2ryy	.	2ryy	.	2ryy	.	2ryy	.	2ryy	.	2ryy	.	2ryy	.	2ryy	.
=71	=71	=71	=71	=71	=71	=71	=71	=71	=71	=71	=71	=71	=71	=71	=71	=71	=71	=71	=71	=71	=71	=71	=71
*	*	*	*	*	*	*	*	*	*	*^	*	*	*	*^	*	*^	*	*	*	*	*	*	*
2.r	.	2.r	.	4C/	p	4CC/	p	(4ff\	.	2.r	2.r	.	2.r	.	2.r	2.r	.	2.r	2.r	.	2.r	.	(4ff\	.	4g'/	p
.	.	.	.	4c'\	.	4r	.	4een\)	.	.	.	.	.	.	.	.	.	.	.	.	.	.	4een\)	.	4g'/	.
.	.	.	.	4c'\	.	4r	.	4ee'\	.	.	.	.	.	.	.	.	.	.	.	.	.	.	4ee'\	.	4g'/	.
=72	=72	=72	=72	=72	=72	=72	=72	=72	=72	=72	=72	=72	=72	=72	=72	=72	=72	=72	=72	=72	=72	=72	=72	=72	=72	=72
2.r	.	2.r	.	(4c'\	.	2.r	.	(2een\	.	2.r	2.r	.	2.r	.	2.r	2.r	.	2.r	2.r	.	2.r	.	(2een\	.	(2g/	.
.	.	.	.	4c'\	.	.	.	.	.	.	.	.	.	.	.	.	.	.	.	.	.	.	.	.	.	.
.	.	.	.	4c'\)	.	.	.	4dd\)	.	.	.	.	.	.	.	.	.	.	.	.	.	.	4dd\)	.	4f/)	.
=73	=73	=73	=73	=73	=73	=73	=73	=73	=73	=73	=73	=73	=73	=73	=73	=73	=73	=73	=73	=73	=73	=73	=73	=73	=73	=73
2.r	.	2.r	.	4C/	.	4CC/	.	&(4dd\)	.	2.r	2.r	.	2.r	.	2.r	2.r	.	2.r	2.r	.	2.r	.	&(4dd\)	.	&(4f/)	.
.	.	.	.	4c'\	.	4r	.	4cc\&)	.	.	.	.	.	.	.	.	.	.	.	.	.	.	4cc\&)	.	4en/&)	.
.	.	.	.	4c'\	.	4r	.	4cc'\	.	.	.	.	.	.	.	.	.	.	.	.	.	.	4cc'\	.	4e'/	.
=74	=74	=74	=74	=74	=74	=74	=74	=74	=74	=74	=74	=74	=74	=74	=74	=74	=74	=74	=74	=74	=74	=74	=74	=74	=74	=74
2.r	.	4r	.	4c'\	.	2.r	.	2cc\	.	2.r	2.r	.	2.r	.	2.r	2.r	.	2.r	2.r	.	2.r	.	2cc\	.	2en/	.
.	.	4r	.	4c'\	.	.	.	.	.	.	.	.	.	.	.	.	.	.	.	.	.	.	.	.	.	.
.	.	4enz\	z	4c'\	.	.	.	4ccc\	.	.	.	.	.	.	.	.	.	.	.	.	.	.	4ccc\	.	4g#z/	z
=75	=75	=75	=75	=75	=75	=75	=75	=75	=75	=75	=75	=75	=75	=75	=75	=75	=75	=75	=75	=75	=75	=75	=75	=75	=75	=75
2.r	.	2f\	.	[2.c\	.	2.r	.	(4bbn\	.	2.r	2.r	.	2.r	.	2.r	2.r	.	2.r	2.r	.	2.r	.	(4bbn\	.	2an/	.
.	.	.	.	.	.	.	.	4aan\)	.	.	.	.	.	.	.	.	.	.	.	.	.	.	4aan\)	.	.	.
.	.	4d#z\	z	.	.	.	.	4ccc\	.	.	.	.	.	.	.	.	.	.	.	.	.	.	4ccc\	.	4f#z/	z
=76	=76	=76	=76	=76	=76	=76	=76	=76	=76	=76	=76	=76	=76	=76	=76	=76	=76	=76	=76	=76	=76	=76	=76	=76	=76	=76
2.r	.	2en\	.	2c\]	.	4r	.	(4aan\	.	2.r	2.r	.	2.r	.	2.r	2.r	.	2.r	2.r	.	2.r	.	(4aan\	.	2gn/	.
.	.	.	.	.	.	4r	.	4gg\)	.	.	.	.	.	.	.	.	.	.	.	.	.	.	4gg\)	.	.	.
.	.	4c\	.	4E\	.	4EEn\	.	4gg#\	.	.	.	.	.	.	.	.	.	.	.	.	.	.	4gg#\	.	4g#/	.
=77	=77	=77	=77	=77	=77	=77	=77	=77	=77	=77	=77	=77	=77	=77	=77	=77	=77	=77	=77	=77	=77	=77	=77	=77	=77	=77
2.r	.	(2c\	.	[2.F\	.	[2.FF\	.	(4bbn\	.	2.r	2.r	.	2.r	.	2.r	2.r	.	2.r	2.r	.	2.r	.	(4bbn\	.	(4bn\	.
.	.	.	.	.	.	.	.	4aan\	.	.	.	.	.	.	.	.	.	.	.	.	.	.	4aan\	.	4an/	.
.	.	4c#\	.	.	.	.	.	4ggn\	.	.	.	.	.	.	.	.	.	.	.	.	.	.	4ggn\	.	4gn/	.
=78	=78	=78	=78	=78	=78	=78	=78	=78	=78	=78	=78	=78	=78	=78	=78	=78	=78	=78	=78	=78	=78	=78	=78	=78	=78	=78
2.r	.	2d\)	.	2F\]	.	2FF\]	.	4ff\	.	2.r	2.r	.	2.r	.	2.r	2.r	.	2.r	2.r	.	2.r	.	4ff\	.	4f/	.
.	.	.	.	.	.	.	.	4een\	.	.	.	.	.	.	.	.	.	.	.	.	.	.	4een\	.	4en/	.
.	.	4F#/	.	4F#\	.	4FF#\	.	4dd\)	.	.	.	.	.	.	.	.	.	.	.	.	.	.	4dd\)	.	4d/)	.
=79	=79	=79	=79	=79	=79	=79	=79	=79	=79	=79	=79	=79	=79	=79	=79	=79	=79	=79	=79	=79	=79	=79	=79	=79	=79	=79
2.r	.	(4An/	.	(4An\	.	(4AAn\	.	(2.cc\	.	2.r	2.r	.	2.r	.	2.r	2.r	.	2.r	2.r	.	2.r	.	(2.cc\	.	(2.c/	.
.	.	4G/	.	4G\	.	4GG\	.	.	.	.	.	.	.	.	.	.	.	.	.	.	.	.	.	.	.	.
.	.	4F#/)	.	4F#\)	.	4FF#\)	.	.	.	.	.	.	.	.	.	.	.	.	.	.	.	.	.	.	.	.
=80	=80	=80	=80	=80	=80	=80	=80	=80	=80	=80	=80	=80	=80	=80	=80	=80	=80	=80	=80	=80	=80	=80	=80	=80	=80	=80
*	*	*	*	*	*	*	*	*	*	*v	*v	*	*	*	*	*	*	*	*	*	*	*	*	*	*	*
*	*	*	*	*	*	*	*	*	*	*	*	*	*	*v	*v	*	*	*	*	*	*	*	*	*	*
*	*	*	*	*	*	*	*	*	*	*	*	*	*	*	*	*v	*v	*	*	*	*	*	*	*
4r	.	4G'/	.	4G'\	.	4GG'\	.	4bn'\)	.	4r	.	4r	.	4r	.	4r	.	4r	.	4bn'\)	.	4Bn'/)	.
4r	.	4r	.	4r	.	4r	.	4r	.	4r	.	4r	.	4r	.	4r	.	4r	.	4r	.	4r	.
=:!!:	=:!!:	=:!!:	=:!!:	=:!!:	=:!!:	=:!!:	=:!!:	=:!!:	=:!!:	=:!!:	=:!!:	=:!!:	=:!!:	=:!!:	=:!!:	=:!!:	=:!!:	=:!!:	=:!!:	=:!!:	=:!!:	=:!!:	=:!!:
*>D	*	*>D	*	*>D	*	*>D	*	*>D	*	*>D	*	*>D	*	*>D	*	*>D	*	*>D	*	*>D	*	*>D	*
4r	.	4r	.	4r	.	4r	.	4cc#'\	.	4r	.	4r	.	4r	.	4r	.	4r	.	4cc#'\	.	4A#'/	.
2ryy	.	2ryy	.	2ryy	.	2ryy	.	2ryy	.	2ryy	.	2ryy	.	2ryy	.	2ryy	.	2ryy	.	2ryy	.	2ryy	.
=81	=81	=81	=81	=81	=81	=81	=81	=81	=81	=81	=81	=81	=81	=81	=81	=81	=81	=81	=81	=81	=81	=81	=81
*	*	*	*	*	*	*	*	*	*	*^	*	*	*	*^	*	*^	*	*	*	*	*	*	*
2.r	.	2.r	.	4GG/	.	2.r	.	(4cc#\	.	2.r	2.r	.	2.r	.	2.r	2.r	.	2.r	2.r	.	2.r	.	(4cc#\	.	(4A#/	.
.	.	.	.	4G\	.	.	.	4dd\)	.	.	.	.	.	.	.	.	.	.	.	.	.	.	4dd\)	.	4Bn/)	.
.	.	.	.	4G\	.	.	.	4dd'\	.	.	.	.	.	.	.	.	.	.	.	.	.	.	4dd'\	.	4B'/	.
=82	=82	=82	=82	=82	=82	=82	=82	=82	=82	=82	=82	=82	=82	=82	=82	=82	=82	=82	=82	=82	=82	=82	=82	=82	=82	=82
2.r	.	2.r	.	4G\	.	2.r	.	(2dd\	.	2.r	2.r	.	2.r	.	2.r	2.r	.	2.r	2.r	.	2.r	.	(2dd\	.	(2Bn/	.
.	.	.	.	4G\	.	.	.	.	.	.	.	.	.	.	.	.	.	.	.	.	.	.	.	.	.	.
.	.	.	.	4G\	.	.	.	4een\)	.	.	.	.	.	.	.	.	.	.	.	.	.	.	4een\)	.	4c#/)	.
=83	=83	=83	=83	=83	=83	=83	=83	=83	=83	=83	=83	=83	=83	=83	=83	=83	=83	=83	=83	=83	=83	=83	=83	=83	=83	=83
2.r	.	2.r	.	4GG/	.	2.r	.	(4een\	.	2.r	2.r	.	2.r	.	2.r	2.r	.	2.r	2.r	.	2.r	.	(4een\	.	(4c#/	.
.	.	.	.	4G\	.	.	.	4ff\)	.	.	.	.	.	.	.	.	.	.	.	.	.	.	4ff\)	.	4d/)	.
.	.	.	.	4G\	.	.	.	4ff'\	.	.	.	.	.	.	.	.	.	.	.	.	.	.	4ff'\	.	4d'/	.
=84	=84	=84	=84	=84	=84	=84	=84	=84	=84	=84	=84	=84	=84	=84	=84	=84	=84	=84	=84	=84	=84	=84	=84	=84	=84	=84
2.r	.	2.r	.	4G\	.	2.r	.	(2ff\	.	2.r	2.r	.	2.r	.	2.r	2.r	.	2.r	2.r	.	2.r	.	(2ff\	.	(2d/	.
.	.	.	.	4G\	.	.	.	.	.	.	.	.	.	.	.	.	.	.	.	.	.	.	.	.	.	.
.	.	.	.	4G\	.	.	.	4ff#\)	.	.	.	.	.	.	.	.	.	.	.	.	.	.	4ff#\)	.	4d#/)	.
=85	=85	=85	=85	=85	=85	=85	=85	=85	=85	=85	=85	=85	=85	=85	=85	=85	=85	=85	=85	=85	=85	=85	=85	=85	=85	=85
2.r	.	2.r	.	[2.G\	.	2.r	.	(4aan\	.	2.r	2.r	.	2.r	.	2.r	2.r	.	2.r	2.r	.	2.r	.	(4aan\	.	(4fn/	.
.	.	.	.	.	.	.	.	4gg\	.	.	.	.	.	.	.	.	.	.	.	.	.	.	4gg\	.	4en/	.
.	.	.	.	.	.	.	.	4bb-\	.	.	.	.	.	.	.	.	.	.	.	.	.	.	4bb-\	.	4g/	.
=86	=86	=86	=86	=86	=86	=86	=86	=86	=86	=86	=86	=86	=86	=86	=86	=86	=86	=86	=86	=86	=86	=86	=86	=86	=86	=86
2.r	.	2.r	.	2.G\_	.	2.r	.	4aan\	.	2.r	2.r	.	2.r	.	2.r	2.r	.	2.r	2.r	.	2.r	.	4aan\	.	4f/	.
.	.	.	.	.	.	.	.	4gg\	.	.	.	.	.	.	.	.	.	.	.	.	.	.	4gg\	.	4en/	.
.	.	.	.	.	.	.	.	4ff\)	.	.	.	.	.	.	.	.	.	.	.	.	.	.	4ff\)	.	4d/)	.
=87	=87	=87	=87	=87	=87	=87	=87	=87	=87	=87	=87	=87	=87	=87	=87	=87	=87	=87	=87	=87	=87	=87	=87	=87	=87	=87
2.r	.	2.r	.	2.G\_	.	2.r	.	(4een\	.	2.r	2.r	.	2.r	.	2.r	2.r	.	2.r	2.r	.	2.r	.	(4een\	.	(4c/	.
.	.	.	.	.	.	.	.	4ff\	.	.	.	.	.	.	.	.	.	.	.	.	.	.	4ff\	.	4d/	.
.	.	.	.	.	.	.	.	4gg\)	.	.	.	.	.	.	.	.	.	.	.	.	.	.	4gg\)	.	4en/)	.
=88	=88	=88	=88	=88	=88	=88	=88	=88	=88	=88	=88	=88	=88	=88	=88	=88	=88	=88	=88	=88	=88	=88	=88	=88	=88	=88
2.r	.	2.r	.	2G\]	.	2.r	.	2dd\	.	2.r	2.r	.	4r	.	2.r	2.r	.	2.r	2.r	.	2.r	.	2dd\	.	2Bn/	.
.	.	.	.	.	.	.	.	.	.	.	.	.	4r	.	.	.	.	.	.	.	.	.	.	.	.	.
!	!	!	!	!	!	!	!	!	!	!	!	!	! 1.	!	!	!	!	!	!	!	!	!	!	!	!	!
.	.	.	.	4r	.	.	.	4gg'\	.	.	.	.	4g'\xx	p	.	.	.	.	.	.	.	.	4gg'\	.	4r	.
=89	=89	=89	=89	=89	=89	=89	=89	=89	=89	=89	=89	=89	=89	=89	=89	=89	=89	=89	=89	=89	=89	=89	=89	=89	=89	=89
2.r	.	2.r	.	4C/	p	4CC/	p	(4ff\	.	2.r	2.r	.	(4f\	.	2.r	2.r	.	2.r	2.r	.	2.r	.	(4ff\	.	(4g'/	.
.	.	.	.	4c'\	.	4r	.	4een\)	.	.	.	.	4en\)	.	.	.	.	.	.	.	.	.	4een\)	.	4g'/	.
.	.	.	.	4c'\	.	4r	.	4ee'\	.	.	.	.	4e'\	.	.	.	.	.	.	.	.	.	4ee'\	.	4g'/)	.
=90	=90	=90	=90	=90	=90	=90	=90	=90	=90	=90	=90	=90	=90	=90	=90	=90	=90	=90	=90	=90	=90	=90	=90	=90	=90	=90
2.r	.	4r	.	4c'\	.	2.r	.	(2een\	.	2.r	2.r	.	(2en\	.	2.r	2.r	.	2.r	2.r	.	2.r	.	(2een\	.	(2g/	.
.	.	4r	.	4c'\	.	.	.	.	.	.	.	.	.	.	.	.	.	.	.	.	.	.	.	.	.	.
.	.	4bn'\	p	4c'\	.	.	.	4dd\)	.	.	.	.	4d\)	.	.	.	.	.	.	.	.	.	4dd\)	.	4f/)	.
=91	=91	=91	=91	=91	=91	=91	=91	=91	=91	=91	=91	=91	=91	=91	=91	=91	=91	=91	=91	=91	=91	=91	=91	=91	=91	=91
2.r	.	(4bn\	.	4C/	.	4CC/	.	&(4dd\)	.	2.r	2.r	.	&(4d\)	.	2.r	2.r	.	2.r	2.r	.	2.r	.	&(4dd\)	.	&(4f/)	.
.	.	4cc\)	.	4c'\	.	4r	.	4cc\&)	.	.	.	.	4c\&)	.	.	.	.	.	.	.	.	.	4cc\&)	.	4en/&)	.
.	.	4cc'\	.	4c'\	.	4r	.	4cc'\	.	.	.	.	4c'\	.	.	.	.	.	.	.	.	.	4cc'\	.	4e'/	.
=92	=92	=92	=92	=92	=92	=92	=92	=92	=92	=92	=92	=92	=92	=92	=92	=92	=92	=92	=92	=92	=92	=92	=92	=92	=92	=92
2.r	.	2cc\	.	4c'\	.	2.r	.	2cc\	.	2.r	2.r	.	2c\	.	2.r	2.r	.	2.r	2.r	.	2.r	.	2cc\	.	2en/	.
.	.	.	.	4c'\	.	.	.	.	.	.	.	.	.	.	.	.	.	.	.	.	.	.	.	.	.	.
.	.	4enz\	z	4c'\	.	.	.	4ccc\	.	.	.	.	4r	.	.	.	.	.	.	.	.	.	4ccc\	.	4g#z/	z
=93	=93	=93	=93	=93	=93	=93	=93	=93	=93	=93	=93	=93	=93	=93	=93	=93	=93	=93	=93	=93	=93	=93	=93	=93	=93	=93
2.r	.	2f\	.	[2.c\	.	2.r	.	(4bbn\	.	2.r	2.r	.	2.r	.	2.r	2.r	.	2.r	2.r	.	2.r	.	(4bbn\	.	2an/	.
.	.	.	.	.	.	.	.	4aan\)	.	.	.	.	.	.	.	.	.	.	.	.	.	.	4aan\)	.	.	.
.	.	4d#z\	z	.	.	.	.	4ccc\	.	.	.	.	.	.	.	.	.	.	.	.	.	.	4ccc\	.	4f#z/	z
=94	=94	=94	=94	=94	=94	=94	=94	=94	=94	=94	=94	=94	=94	=94	=94	=94	=94	=94	=94	=94	=94	=94	=94	=94	=94	=94
2.r	.	2en\	.	2c\]	.	2.r	.	(4aan\	.	2.r	2.r	.	4r	.	2.r	2.r	.	2.r	2.r	.	2.r	.	(4aan\	.	2gn/	.
.	.	.	.	.	.	.	.	4gg\)	.	.	.	.	4r	.	.	.	.	.	.	.	.	.	4gg\)	.	.	.
.	.	4c\	.	4r	.	.	.	4eeen\	.	.	.	.	4en\	.	.	.	.	.	.	.	.	.	4eeen\	.	4en/	.
=95	=95	=95	=95	=95	=95	=95	=95	=95	=95	=95	=95	=95	=95	=95	=95	=95	=95	=95	=95	=95	=95	=95	=95	=95	=95	=95
2.r	.	(4dn\	.	4r	.	4r	.	(4ddd\	.	2.r	2.r	.	(4d\	.	2.r	2.r	.	2.r	2.r	.	2.r	.	(4ddd\	.	(4fn/	.
.	.	4en\)	.	4r	.	4r	.	4ccc\	.	.	.	.	4c\	.	.	.	.	.	.	.	.	.	4ccc\	.	4g/	.
.	.	4r	.	4En\	.	4EEn\	.	4bbn\	.	.	.	.	4Bn\	.	.	.	.	.	.	.	.	.	4bbn\	.	4G/	.
=96	=96	=96	=96	=96	=96	=96	=96	=96	=96	=96	=96	=96	=96	=96	=96	=96	=96	=96	=96	=96	=96	=96	=96	=96	=96	=96
2.r	.	4r	.	(4F\	.	(4FF\	.	4aan\	.	2.r	2.r	.	4An\	.	2.r	2.r	.	2.r	2.r	.	2.r	.	4aan\	.	4An/	.
.	.	4r	.	4G\	.	4GG\	.	4gg\	.	.	.	.	4G\	.	.	.	.	.	.	.	.	.	4gg\	.	4Bn/	.
.	.	4d\	.	4An\)	.	4AAn\)	.	4ff#\)	.	.	.	.	4F#\)	.	.	.	.	.	.	.	.	.	4ff#\)	.	4c/)	.
=97	=97	=97	=97	=97	=97	=97	=97	=97	=97	=97	=97	=97	=97	=97	=97	=97	=97	=97	=97	=97	=97	=97	=97	=97	=97	=97
2.r	.	2.c\	.	2.G\	.	2.GG\	.	2.gg\	.	2.r	2.r	.	2G\	.	2.r	2.r	.	2.r	2.r	.	2.r	.	2.gg\	.	2.en/	.
.	.	.	.	.	.	.	.	.	.	.	.	.	4g\	.	.	.	.	.	.	.	.	.	.	.	.	.
=98	=98	=98	=98	=98	=98	=98	=98	=98	=98	=98	=98	=98	=98	=98	=98	=98	=98	=98	=98	=98	=98	=98	=98	=98	=98	=98
2.r	.	2f\	.	2.G\	.	2.GG\	.	(4ffn\	.	2.r	2.r	.	(4fn\	.	2.r	2.r	.	2.r	2.r	.	2.r	.	(4ffn\	.	(4d/	.
.	.	.	.	.	.	.	.	4dd\	.	.	.	.	4d\	.	.	.	.	.	.	.	.	.	4dd\	.	4f/)	.
.	.	4d\	.	.	.	.	.	4bn\)	.	.	.	.	4B\)	.	.	.	.	.	.	.	.	.	4bn\)	.	4f'/	.
=99	=99	=99	=99	=99	=99	=99	=99	=99	=99	=99	=99	=99	=99	=99	=99	=99	=99	=99	=99	=99	=99	=99	=99	=99	=99	=99
2.r	.	(2.Bn/	.	2C/	.	2CC/	.	(2.dd\	.	2.r	2.r	.	(2.d\	.	2.r	2.r	.	2.r	2.r	.	2.r	.	(2.dd\	.	(2.f/	.
.	.	.	.	4G\	.	4GG\	.	.	.	.	.	.	.	.	.	.	.	.	.	.	.	.	.	.	.	.
=100	=100	=100	=100	=100	=100	=100	=100	=100	=100	=100	=100	=100	=100	=100	=100	=100	=100	=100	=100	=100	=100	=100	=100	=100	=100	=100
*	*	*	*	*	*	*	*	*	*	*v	*v	*	*	*	*	*	*	*	*	*	*	*	*	*	*	*
*	*	*	*	*	*	*	*	*	*	*	*	*	*	*v	*v	*	*	*	*	*	*	*	*	*	*
*	*	*	*	*	*	*	*	*	*	*	*	*	*	*	*	*v	*v	*	*	*	*	*	*	*
4r	.	4c\)	.	4c\	.	4C\	.	4cc\)	.	4r	.	4c\)	.	4r	.	4r	.	4r	.	4cc\)	.	4en/)	.
4r	.	4r	.	4r	.	4r	.	4r	.	4r	.	4r	.	4r	.	4r	.	4r	.	4r	.	4r	.
=:|!	=:|!	=:|!	=:|!	=:|!	=:|!	=:|!	=:|!	=:|!	=:|!	=:|!	=:|!	=:|!	=:|!	=:|!	=:|!	=:|!	=:|!	=:|!	=:|!	=:|!	=:|!	=:|!	=:|!
*>E	*	*>E	*	*>E	*	*>E	*	*>E	*	*>E	*	*>E	*	*>E	*	*>E	*	*>E	*	*>E	*	*>E	*
4r	.	4g'\	.	4r	.	4r	.	4r	.	4r	.	4r	.	4r	.	4r	.	4r	.	4dd'\	.	4bn'\	.
2ryy	.	2ryy	.	2ryy	.	2ryy	.	2ryy	.	2ryy	.	2ryy	.	2ryy	.	2ryy	.	2ryy	.	2ryy	.	2ryy	.
=101	=101	=101	=101	=101	=101	=101	=101	=101	=101	=101	=101	=101	=101	=101	=101	=101	=101	=101	=101	=101	=101	=101	=101
*	*	*	*	*	*	*	*	*	*	*^	*	*	*	*^	*	*^	*	*	*	*	*	*	*
2.r	.	(4g\	.	2.r	.	2.r	.	2.r	.	2.r	2.r	.	2.r	.	2.r	2.r	.	2.r	2.r	.	2.r	.	(4dd\	.	(4bn\	.
.	.	4f#\)	.	.	.	.	.	.	.	.	.	.	.	.	.	.	.	.	.	.	.	.	4ee-\)	.	4cc\)	.
.	.	4f#'\	.	.	.	.	.	.	.	.	.	.	.	.	.	.	.	.	.	.	.	.	4ee-'\	.	4cc'\	.
=102	=102	=102	=102	=102	=102	=102	=102	=102	=102	=102	=102	=102	=102	=102	=102	=102	=102	=102	=102	=102	=102	=102	=102	=102	=102	=102
2.r	.	(2f#\	.	4r	.	4r	.	2.r	.	2.r	2.r	.	2.r	.	2.r	2.r	.	2.r	2.r	.	2.r	.	(2ee-\	.	(2cc\	.
.	.	.	.	4r	.	4r	.	.	.	.	.	.	.	.	.	.	.	.	.	.	.	.	.	.	.	.
.	.	4F#/)	.	4F#\	.	4FF#\	.	.	.	.	.	.	.	.	.	.	.	.	.	.	.	.	4cc\)	.	4e-/)	.
=103	=103	=103	=103	=103	=103	=103	=103	=103	=103	=103	=103	=103	=103	=103	=103	=103	=103	=103	=103	=103	=103	=103	=103	=103	=103	=103
2.r	.	(4F#/	.	(4F#\	.	(4FF#\	.	2.r	.	2.r	2.r	.	2.r	.	2.r	2.r	.	2.r	2.r	.	2.r	.	(4cc\	.	(4e-/	.
.	.	4G/)	.	4G\)	.	4GG\)	.	.	.	.	.	.	.	.	.	.	.	.	.	.	.	.	4bn\)	.	4d/)	.
.	.	4G'/	.	4G'\	.	4GG'\	.	.	.	.	.	.	.	.	.	.	.	.	.	.	.	.	4b'\	.	4d'/	.
=104	=104	=104	=104	=104	=104	=104	=104	=104	=104	=104	=104	=104	=104	=104	=104	=104	=104	=104	=104	=104	=104	=104	=104	=104	=104	=104
2.r	.	2G/	.	[2.G\	.	[2.GG\	.	2.r	.	2.r	2.r	.	2.r	.	2.r	2.r	.	2.r	2.r	.	2.r	.	2bn\	.	2d/	.
.	.	4Bn/	.	.	.	.	.	.	.	.	.	.	.	.	.	.	.	.	.	.	.	.	4gg\	.	4d/	.
=105	=105	=105	=105	=105	=105	=105	=105	=105	=105	=105	=105	=105	=105	=105	=105	=105	=105	=105	=105	=105	=105	=105	=105	=105	=105	=105
2.r	.	(2c\	.	2.G\_	.	2.GG\_	.	2.r	.	2.r	2.r	.	2.r	.	2.r	2.r	.	2.r	2.r	.	2.r	.	(4ff#\	.	(2e-/	.
.	.	.	.	.	.	.	.	.	.	.	.	.	.	.	.	.	.	.	.	.	.	.	4ee-\	.	.	.
.	.	4e-\	.	.	.	.	.	.	.	.	.	.	.	.	.	.	.	.	.	.	.	.	4cc\	.	4f#/	.
=106	=106	=106	=106	=106	=106	=106	=106	=106	=106	=106	=106	=106	=106	=106	=106	=106	=106	=106	=106	=106	=106	=106	=106	=106	=106	=106
2.r	.	2d\)	.	2.G\_	.	2.GG\_	.	2.r	.	2.r	2.r	.	2.r	.	2.r	2.r	.	2.r	2.r	.	2.r	.	4bn\	.	2g/)	.
.	.	.	.	.	.	.	.	.	.	.	.	.	.	.	.	.	.	.	.	.	.	.	4g/)	.	.	.
.	.	4Bn/	.	.	.	.	.	.	.	.	.	.	.	.	.	.	.	.	.	.	.	.	4gg\	.	4d/	.
=107	=107	=107	=107	=107	=107	=107	=107	=107	=107	=107	=107	=107	=107	=107	=107	=107	=107	=107	=107	=107	=107	=107	=107	=107	=107	=107
2.r	.	(2c\	.	2.G\_	.	2.GG\_	.	2.r	.	2.r	2.r	.	2.r	.	2.r	2.r	.	2.r	2.r	.	2.r	.	(4ff#\	.	(2e-/	.
.	.	.	.	.	.	.	.	.	.	.	.	.	.	.	.	.	.	.	.	.	.	.	4ee-\	.	.	.
.	.	4e-\	.	.	.	.	.	.	.	.	.	.	.	.	.	.	.	.	.	.	.	.	4cc\	.	4f#/	.
=108	=108	=108	=108	=108	=108	=108	=108	=108	=108	=108	=108	=108	=108	=108	=108	=108	=108	=108	=108	=108	=108	=108	=108	=108	=108	=108
2.r	.	2d\)	.	2G\]	.	2GG\]	.	2.r	.	4r	2ryy	.	2.r	.	2.r	2.r	.	2.r	2.r	.	2.r	.	4bn\	.	2g/)	.
.	.	.	.	.	.	.	.	.	.	4r	.	.	.	.	.	.	.	.	.	.	.	.	4g/)	.	.	.
.	.	4g\	.	4G\	.	4GG\	.	.	.	4ee\	4cc#\	p	.	.	.	.	.	.	.	.	.	.	4g/	.	4g/	.
=109	=109	=109	=109	=109	=109	=109	=109	=109	=109	=109	=109	=109	=109	=109	=109	=109	=109	=109	=109	=109	=109	=109	=109	=109	=109	=109
2.r	.	(4f#\	.	(4F#\	.	(4FF#\	.	2.r	.	(2.ff\	2.dd\	.	2.r	.	2.r	2.r	.	2.r	2.r	.	2.r	.	(4f#/	.	(4f#/	.
.	.	4e-\	.	4E-\	.	4EE-\	.	.	.	.	.	.	.	.	.	.	.	.	.	.	.	.	4e-/	.	4e-/	.
.	.	4c\	.	4C/	.	4CC/	.	.	.	.	.	.	.	.	.	.	.	.	.	.	.	.	4c/	.	4c/	.
=110	=110	=110	=110	=110	=110	=110	=110	=110	=110	=110	=110	=110	=110	=110	=110	=110	=110	=110	=110	=110	=110	=110	=110	=110	=110	=110
2.r	.	4Bn/	.	4BBn/	.	4BBBn/	.	2.r	.	2.ee\)	2.cc#\	.	2.r	.	2.r	2.r	.	2.r	2.r	.	2.r	.	4Bn/	.	4Bn/	.
.	.	4G/)	.	4GG/)	.	4GGG/)	.	.	.	.	.	.	.	.	.	.	.	.	.	.	.	.	4G/)	.	4G/)	.
.	.	4r	.	4r	.	4r	.	.	.	.	.	.	.	.	.	.	.	.	.	.	.	.	4fn/	.	4r	.
=111	=111	=111	=111	=111	=111	=111	=111	=111	=111	=111	=111	=111	=111	=111	=111	=111	=111	=111	=111	=111	=111	=111	=111	=111	=111	=111
2.r	.	4G/	.	4GG/	.	4GGG/	.	2.r	.	[2.gg\	[2.ee\	.	2.r	.	2.r	2.r	.	2.r	2.r	.	2.r	.	(4d/	.	4Bn/	.
.	.	4r	.	4r	.	4r	.	.	.	.	.	.	.	.	.	.	.	.	.	.	.	.	4Bn/)	.	4r	.
.	.	4r	.	4r	.	4r	.	.	.	.	.	.	.	.	.	.	.	.	.	.	.	.	4a-/	.	4r	.
=112	=112	=112	=112	=112	=112	=112	=112	=112	=112	=112	=112	=112	=112	=112	=112	=112	=112	=112	=112	=112	=112	=112	=112	=112	=112	=112
2.r	.	4d\	.	4GG/	.	4GGG/	.	2.r	.	2.gg\_	2.ee\_	.	2.r	.	2.r	2.r	.	2.r	2.r	.	2.r	.	(4f/	.	4Bn/	.
.	.	4r	.	4r	.	4r	.	.	.	.	.	.	.	.	.	.	.	.	.	.	.	.	4d/)	.	4r	.
.	.	4r	.	4r	.	4r	.	.	.	.	.	.	.	.	.	.	.	.	.	.	.	.	4dd\	.	4r	.
=113	=113	=113	=113	=113	=113	=113	=113	=113	=113	=113	=113	=113	=113	=113	=113	=113	=113	=113	=113	=113	=113	=113	=113	=113	=113	=113
2.r	.	4d\	.	4GG/	.	4GGG/	.	2.r	.	2.gg\_	2.ee\_	.	2.r	.	2.r	2.r	.	2.r	2.r	.	2.r	.	(4bn\	.	4f/ 4d/	.
.	.	4r	.	4r	.	4r	.	.	.	.	.	.	.	.	.	.	.	.	.	.	.	.	4g/)	.	4r	.
.	.	4r	.	4r	.	4r	.	.	.	.	.	.	.	.	.	.	.	.	.	.	.	.	4ff\	.	4r	.
=114	=114	=114	=114	=114	=114	=114	=114	=114	=114	=114	=114	=114	=114	=114	=114	=114	=114	=114	=114	=114	=114	=114	=114	=114	=114	=114
2.r	.	4Bn/	.	4GG/	.	4GGG/	.	2.r	.	2gg\]	2ee\]	.	2.r	.	2.r	2.r	.	2.r	2.r	.	2.r	.	(4dd\	.	4f/ 4d/	.
.	.	4r	.	4r	.	4r	.	.	.	.	.	.	.	.	.	.	.	.	.	.	.	.	4bn\)	.	4r	.
.	.	4r	.	4r	.	4r	.	.	.	4bb-\	4b-\	.	.	.	.	.	.	.	.	.	.	.	4aa-\	.	4r	.
=115	=115	=115	=115	=115	=115	=115	=115	=115	=115	=115	=115	=115	=115	=115	=115	=115	=115	=115	=115	=115	=115	=115	=115	=115	=115	=115
2.r	.	4Bn/	.	4GG/	.	4GGG/	.	2.r	.	(4gg\	4g\	.	2.r	.	2.r	2.r	.	2.r	2.r	.	2.r	.	(4ff\	.	4f/ 4d/	.
.	.	4r	.	4r	.	4r	.	.	.	4ee/)	4e/	.	.	.	.	.	.	.	.	.	.	.	4dd\)	.	4r	.
.	.	4r	.	4r	.	4r	.	.	.	4bb-\	4b-\	.	.	.	.	.	.	.	.	.	.	.	4aa-\	.	4r	.
=116	=116	=116	=116	=116	=116	=116	=116	=116	=116	=116	=116	=116	=116	=116	=116	=116	=116	=116	=116	=116	=116	=116	=116	=116	=116	=116
2.r	.	2.r	.	2.r	.	2.r	.	2.r	.	(4gg\	4g\	.	2.r	.	2.r	2.r	.	2.r	2.r	.	2.r	.	(4ff\	.	2.r	.
.	.	.	.	.	.	.	.	.	.	4ee/)	4e/	.	.	.	.	.	.	.	.	.	.	.	4dd\)	.	.	.
.	.	.	.	.	.	.	.	.	.	4bb-\	4b-\	.	.	.	.	.	.	.	.	.	.	.	4aa-\	.	.	.
=117	=117	=117	=117	=117	=117	=117	=117	=117	=117	=117	=117	=117	=117	=117	=117	=117	=117	=117	=117	=117	=117	=117	=117	=117	=117	=117
2.r	.	2.r	.	2.r	.	2.r	.	2.r	.	(4gg\	4g\	.	2.r	.	2.r	2.r	.	2.r	2.r	.	2.r	.	(4ff\	.	2.r	.
.	.	.	.	.	.	.	.	.	.	4ee/)	4e/	.	.	.	.	.	.	.	.	.	.	.	4dd\)	.	.	.
.	.	.	.	.	.	.	.	.	.	4bb-\	4b-\	.	.	.	.	.	.	.	.	.	.	.	4aa-\	.	.	.
=118	=118	=118	=118	=118	=118	=118	=118	=118	=118	=118	=118	=118	=118	=118	=118	=118	=118	=118	=118	=118	=118	=118	=118	=118	=118	=118
*	*	*	*	*	*	*	*	*	*	*	*	*	*	*	*v	*v	*	*	*	*	*	*	*	*	*	*
*	*	*	*	*	*	*	*	*	*	*	*	*	*	*	*	*	*v	*v	*	*	*	*	*	*	*
4r	.	4r	.	4r	.	4r	.	4r	.	(4gg\	4g\	.	4r	.	4r	.	4r	.	4r	.	(4ff\	.	4r	.
4r	.	4r	.	4r	.	4r	.	4r	.	4ee/)	4e/	.	4r	.	4r	.	4r	.	4r	.	4dd\)	.	4r	.
! Men. D. C.	!	! Men. D. C.	!	! Men. D. C.	!	! Men. D. C.	!	! Men. D. C.	!	!	! attaca subito il Menuet	!	! Men. D. C.	!	! Men. D. C.	!	! Men. D. C.	!	! Men. D. C.	!	! attaca subito il Menuet	!	! Men. D. C.	!
!	!	!	!	!	!	!	!	!	!	!	! Men. D. C.	!	!	!	!	!	!	!	!	!	! Men. D. C.	!	!	!
==|!	==|!	==|!	==|!	==|!	==|!	==|!	==|!	==|!	==|!	==|!	==|!	==|!	==|!	==|!	==|!	==|!	==|!	==|!	==|!	==|!	==|!	==|!	==|!	==|!
*-	*-	*-	*-	*-	*-	*-	*-	*-	*-	*-	*-	*-	*-	*-	*-	*-	*-	*-	*-	*-	*-	*-	*-	*-
!!!RWG: Key is interpreted using the Humdrum key tool.
!!!AFT: stage2
!!!END: 19/04-05-95/
!!format changes:
!!content changes:
!!public access: complete
!!!KEY: 3050591108
!!!EMD: Converted from MuseData to Humdrum Dec 16, 2000, by Andreas Kornstaedt using muse2kern.
